(G-CODE GENERATED BY FLATCAM v8.994 - www.flatcam.org - Version Date: 2020/11/7)

(Name: sram_module_for_IceBreaker-B_Cu.gbr_ncc_1_cnc)
(Type: G-code from Geometry)
(Units: MM)

(Created on Monday, 18 October 2021 at 20:39)

(This preprocessor is the default preprocessor used by FlatCAM.)
(It is made to work with MACH3 compatible motion controllers.)

(TOOL DIAMETER: 0.3 mm)
(Feedrate_XY: 600.0 mm/min)
(Feedrate_Z: 60.0 mm/min)
(Feedrate rapids 1500.0 mm/min)

(Z_Cut: -0.1 mm)
(Z_Move: 1.0 mm)
(Z Start: None mm)
(Z End: 15.0 mm)
(X,Y End: None mm)
(Steps per circle: 64)
(Preprocessor Geometry: default)

(X range:    1.5239 ...   23.0279  mm)
(Y range:    1.2802 ...   23.4736  mm)

(Spindle Speed: 0.0 RPM)
G21
G90
G94

G01 F600.00

M5
G00 Z15.0000
G00 X0.0000 Y0.0000
T1
M6    
(MSG, Change to Tool Dia = 0.3000)
M0
G00 Z15.0000

M03
G01 F600.00
G00 X8.6983 Y5.7427
G01 F60.00
G01 Z-0.1000
G01 F600.00
G01 X8.6277 Y5.7426
G01 X2.8951 Y11.4752
G01 X2.8951 Y11.5381
G01 X8.6329 Y5.8004
G01 X8.6468 Y5.7870
G01 X8.6725 Y5.7637
G01 X8.6862 Y5.7522
G01 X8.6983 Y5.7427
G01 X10.1915 Y5.9524
G01 X10.1988 Y5.9458
G01 X10.2066 Y5.9400
G01 X10.2151 Y5.9349
G01 X10.2239 Y5.9307
G01 X10.2332 Y5.9274
G01 X10.2403 Y5.9255
G01 X10.2500 Y5.9239
G01 X10.2597 Y5.9231
G01 X11.6592 Y5.9231
G01 X11.6666 Y5.9234
G01 X11.6739 Y5.9242
G01 X11.6859 Y5.9267
G01 X11.6975 Y5.9307
G01 X11.7085 Y5.9361
G01 X11.7188 Y5.9428
G01 X11.7282 Y5.9507
G01 X11.7365 Y5.9597
G01 X11.7437 Y5.9696
G01 X11.7474 Y5.9760
G01 X11.7506 Y5.9826
G01 X11.7549 Y5.9941
G01 X11.7568 Y6.0012
G01 X11.7581 Y6.0084
G01 X11.7592 Y6.0206
G01 X11.7592 Y6.5819
G01 X11.7589 Y6.5893
G01 X11.7581 Y6.5966
G01 X11.7568 Y6.6038
G01 X11.7549 Y6.6109
G01 X11.7525 Y6.6179
G01 X11.7485 Y6.6269
G01 X11.7450 Y6.6333
G01 X11.7410 Y6.6395
G01 X11.7365 Y6.6453
G01 X11.7316 Y6.6509
G01 X11.7264 Y6.6560
G01 X11.7207 Y6.6607
G01 X11.7148 Y6.6650
G01 X11.7085 Y6.6689
G01 X11.6997 Y6.6733
G01 X11.6929 Y6.6761
G01 X11.6859 Y6.6783
G01 X11.6739 Y6.6808
G01 X11.6666 Y6.6816
G01 X11.6592 Y6.6819
G01 X10.2622 Y6.6819
G01 X10.2524 Y6.6814
G01 X10.2427 Y6.6800
G01 X10.2332 Y6.6776
G01 X10.2239 Y6.6743
G01 X10.2151 Y6.6701
G01 X10.2066 Y6.6650
G01 X10.1988 Y6.6592
G01 X10.1915 Y6.6526
G01 X9.2800 Y6.6526
G01 X3.3351 Y12.5975
G01 X3.3351 Y20.2925
G01 X4.7050 Y21.6624
G01 X9.1900 Y21.6624
G01 X11.4733 Y19.3790
G01 X11.4683 Y19.3683
G01 X11.4655 Y19.3615
G01 X11.4374 Y19.2829
G01 X11.4346 Y19.2735
G01 X11.4133 Y19.1878
G01 X11.4002 Y19.1005
G01 X11.3992 Y19.0907
G01 X11.3950 Y19.0025
G01 X11.3996 Y18.9094
G01 X11.4133 Y18.8172
G01 X11.4346 Y18.7315
G01 X11.4374 Y18.7221
G01 X11.4673 Y18.6390
G01 X11.5072 Y18.5547
G01 X11.5551 Y18.4747
G01 X11.6106 Y18.3998
G01 X11.6732 Y18.3307
G01 X11.7423 Y18.2681
G01 X11.8172 Y18.2126
G01 X11.8929 Y18.1671
G01 X11.9016 Y18.1625
G01 X11.9770 Y18.1268
G01 X11.9860 Y18.1230
G01 X12.0692 Y18.0934
G01 X12.1597 Y18.0708
G01 X12.2519 Y18.0571
G01 X12.3401 Y18.0526
G01 X12.3499 Y18.0526
G01 X12.4381 Y18.0571
G01 X12.5303 Y18.0708
G01 X12.6160 Y18.0921
G01 X12.6254 Y18.0949
G01 X12.7085 Y18.1248
G01 X12.7884 Y18.1625
G01 X12.7971 Y18.1671
G01 X12.8728 Y18.2126
G01 X12.9477 Y18.2681
G01 X13.0132 Y18.3274
G01 X13.0201 Y18.3343
G01 X13.0794 Y18.3998
G01 X13.1349 Y18.4747
G01 X13.1804 Y18.5504
G01 X13.1850 Y18.5591
G01 X13.2227 Y18.6390
G01 X13.2541 Y18.7267
G01 X13.2757 Y18.8124
G01 X13.2776 Y18.8220
G01 X13.2904 Y18.9094
G01 X13.2950 Y19.0025
G01 X13.2908 Y19.0907
G01 X13.2898 Y19.1005
G01 X13.2767 Y19.1878
G01 X13.2554 Y19.2735
G01 X13.2526 Y19.2829
G01 X13.2227 Y19.3660
G01 X13.1828 Y19.4503
G01 X13.1349 Y19.5303
G01 X13.0824 Y19.6013
G01 X13.0762 Y19.6089
G01 X13.0168 Y19.6743
G01 X12.9514 Y19.7337
G01 X12.9438 Y19.7399
G01 X12.8728 Y19.7924
G01 X12.7971 Y19.8379
G01 X12.7884 Y19.8425
G01 X12.7130 Y19.8782
G01 X12.7040 Y19.8820
G01 X12.6208 Y19.9116
G01 X12.5303 Y19.9342
G01 X12.4381 Y19.9479
G01 X12.3450 Y19.9525
G01 X12.2519 Y19.9479
G01 X12.1597 Y19.9342
G01 X12.0692 Y19.9116
G01 X11.9860 Y19.8820
G01 X11.9792 Y19.8792
G01 X11.9685 Y19.8742
G01 X9.5826 Y22.2601
G01 X9.5571 Y22.2831
G01 X9.5335 Y22.3008
G01 X9.5254 Y22.3062
G01 X9.5001 Y22.3213
G01 X9.4735 Y22.3340
G01 X9.4667 Y22.3369
G01 X9.4413 Y22.3460
G01 X9.4319 Y22.3488
G01 X9.4057 Y22.3554
G01 X9.3985 Y22.3567
G01 X9.3693 Y22.3609
G01 X9.3350 Y22.3626
G01 X4.5600 Y22.3626
G01 X4.5306 Y22.3613
G01 X4.5208 Y22.3603
G01 X4.4917 Y22.3559
G01 X4.4631 Y22.3488
G01 X4.4537 Y22.3460
G01 X4.4260 Y22.3360
G01 X4.3993 Y22.3235
G01 X4.3907 Y22.3189
G01 X4.3655 Y22.3036
G01 X4.3417 Y22.2862
G01 X4.3342 Y22.2799
G01 X4.3142 Y22.2618
G01 X2.7374 Y20.6851
G01 X2.7176 Y20.6633
G01 X2.7113 Y20.6558
G01 X2.6939 Y20.6320
G01 X2.6762 Y20.6026
G01 X2.6615 Y20.5715
G01 X2.6515 Y20.5438
G01 X2.6487 Y20.5344
G01 X2.6412 Y20.5034
G01 X2.6366 Y20.4718
G01 X2.6349 Y20.4375
G01 X2.6349 Y12.4525
G01 X2.6366 Y12.4182
G01 X2.6408 Y12.3890
G01 X2.6427 Y12.3794
G01 X2.6493 Y12.3532
G01 X2.6515 Y12.3462
G01 X2.6615 Y12.3185
G01 X2.6740 Y12.2918
G01 X2.6774 Y12.2853
G01 X2.6913 Y12.2621
G01 X2.6967 Y12.2540
G01 X2.7144 Y12.2304
G01 X2.7374 Y12.2049
G01 X8.8874 Y6.0549
G01 X8.9110 Y6.0334
G01 X8.9365 Y6.0142
G01 X8.9446 Y6.0088
G01 X8.9700 Y5.9937
G01 X9.0010 Y5.9790
G01 X9.0334 Y5.9675
G01 X9.0619 Y5.9602
G01 X9.0715 Y5.9583
G01 X9.1031 Y5.9539
G01 X9.1350 Y5.9524
G01 X10.1915 Y5.9524
G00 Z1.0000
G00 X9.8974 Y7.0129
G01 F60.00
G01 Z-0.1000
G01 F600.00
G01 X9.4291 Y7.0127
G01 X3.6951 Y12.7466
G01 X3.6951 Y13.3131
G01 X6.7652 Y10.2430
G01 X6.7792 Y10.2298
G01 X6.8111 Y10.2014
G01 X6.8268 Y10.1888
G01 X6.8529 Y10.1694
G01 X6.8668 Y10.1595
G01 X6.8837 Y10.1486
G01 X6.9165 Y10.1289
G01 X6.9342 Y10.1192
G01 X6.9756 Y10.0992
G01 X6.9996 Y10.0889
G01 X7.0460 Y10.0721
G01 X7.0631 Y10.0667
G01 X7.0774 Y10.0628
G01 X7.1077 Y10.0552
G01 X7.1243 Y10.0515
G01 X7.1419 Y10.0482
G01 X7.1741 Y10.0434
G01 X7.1886 Y10.0415
G01 X7.2044 Y10.0400
G01 X7.2515 Y10.0376
G01 X10.1585 Y10.0374
G01 X10.1740 Y10.0170
G01 X10.1870 Y10.0013
G01 X10.2399 Y9.9428
G01 X10.2532 Y9.9288
G01 X10.2687 Y9.9139
G01 X10.3271 Y9.8610
G01 X10.3445 Y9.8465
G01 X10.3649 Y9.8310
G01 X10.3649 Y8.3119
G01 X10.2622 Y8.3119
G01 X10.2440 Y8.3115
G01 X10.2262 Y8.3105
G01 X10.2127 Y8.3092
G01 X10.1969 Y8.3072
G01 X10.1814 Y8.3047
G01 X10.1636 Y8.3012
G01 X10.1438 Y8.2964
G01 X10.1244 Y8.2908
G01 X10.1052 Y8.2843
G01 X10.0882 Y8.2777
G01 X10.0695 Y8.2696
G01 X10.0534 Y8.2618
G01 X10.0374 Y8.2532
G01 X10.0198 Y8.2429
G01 X10.0010 Y8.2305
G01 X9.9846 Y8.2187
G01 X9.9687 Y8.2061
G01 X9.9549 Y8.1942
G01 X9.9385 Y8.1787
G01 X9.9243 Y8.1641
G01 X9.9110 Y8.1490
G01 X9.8982 Y8.1332
G01 X9.8874 Y8.1186
G01 X9.8760 Y8.1017
G01 X9.8642 Y8.0825
G01 X9.8545 Y8.0648
G01 X9.8454 Y8.0466
G01 X9.8381 Y8.0300
G01 X9.8298 Y8.0089
G01 X9.8241 Y7.9920
G01 X9.8195 Y7.9767
G01 X9.8144 Y7.9570
G01 X9.8106 Y7.9395
G01 X9.8075 Y7.9216
G01 X9.8051 Y7.9038
G01 X9.8033 Y7.8835
G01 X9.8025 Y7.8676
G01 X9.8022 Y7.8519
G01 X9.8022 Y7.2931
G01 X9.8025 Y7.2774
G01 X9.8033 Y7.2615
G01 X9.8046 Y7.2458
G01 X9.8066 Y7.2300
G01 X9.8094 Y7.2123
G01 X9.8124 Y7.1966
G01 X9.8165 Y7.1792
G01 X9.8208 Y7.1638
G01 X9.8261 Y7.1467
G01 X9.8315 Y7.1317
G01 X9.8381 Y7.1150
G01 X9.8445 Y7.1004
G01 X9.8523 Y7.0843
G01 X9.8598 Y7.0702
G01 X9.8688 Y7.0547
G01 X9.8773 Y7.0412
G01 X9.8874 Y7.0264
G01 X9.8974 Y7.0129
G01 X9.6301 Y7.1928
G01 X9.5036 Y7.1927
G01 X3.8751 Y12.8212
G01 X3.8751 Y12.8785
G01 X6.6403 Y10.1134
G01 X6.6539 Y10.1005
G01 X6.6765 Y10.0799
G01 X6.6961 Y10.0630
G01 X6.7178 Y10.0456
G01 X6.7530 Y10.0195
G01 X6.7808 Y10.0006
G01 X6.8185 Y9.9777
G01 X6.8425 Y9.9641
G01 X6.8675 Y9.9512
G01 X6.9150 Y9.9291
G01 X6.9338 Y9.9213
G01 X6.9532 Y9.9140
G01 X6.9854 Y9.9026
G01 X7.0087 Y9.8951
G01 X7.0305 Y9.8890
G01 X7.0623 Y9.8810
G01 X7.0825 Y9.8763
G01 X7.1035 Y9.8722
G01 X7.1589 Y9.8638
G01 X7.1800 Y9.8615
G01 X7.1967 Y9.8601
G01 X7.2460 Y9.8577
G01 X7.2650 Y9.8574
G01 X10.0744 Y9.8574
G01 X10.1092 Y9.8191
G01 X10.1259 Y9.8015
G01 X10.1453 Y9.7828
G01 X10.1849 Y9.7469
G01 X10.1849 Y8.4872
G01 X10.1628 Y8.4841
G01 X10.1428 Y8.4806
G01 X10.1241 Y8.4768
G01 X10.1013 Y8.4713
G01 X10.0817 Y8.4659
G01 X10.0594 Y8.4589
G01 X10.0404 Y8.4522
G01 X10.0224 Y8.4453
G01 X10.0008 Y8.4361
G01 X9.9836 Y8.4281
G01 X9.9664 Y8.4194
G01 X9.9487 Y8.4098
G01 X9.9303 Y8.3991
G01 X9.9122 Y8.3877
G01 X9.8955 Y8.3764
G01 X9.8765 Y8.3626
G01 X9.8613 Y8.3508
G01 X9.8459 Y8.3379
G01 X9.8300 Y8.3239
G01 X9.8144 Y8.3091
G01 X9.8002 Y8.2948
G01 X9.7858 Y8.2792
G01 X9.7717 Y8.2630
G01 X9.7590 Y8.2474
G01 X9.7462 Y8.2305
G01 X9.7338 Y8.2130
G01 X9.7227 Y8.1962
G01 X9.7116 Y8.1781
G01 X9.7009 Y8.1594
G01 X9.6915 Y8.1416
G01 X9.6822 Y8.1225
G01 X9.6735 Y8.1029
G01 X9.6627 Y8.0760
G01 X9.6535 Y8.0495
G01 X9.6460 Y8.0247
G01 X9.6385 Y7.9954
G01 X9.6328 Y7.9678
G01 X9.6282 Y7.9392
G01 X9.6248 Y7.9091
G01 X9.6229 Y7.8811
G01 X9.6222 Y7.8519
G01 X9.6222 Y7.2870
G01 X9.6229 Y7.2639
G01 X9.6245 Y7.2394
G01 X9.6268 Y7.2170
G01 X9.6301 Y7.1928
G01 X9.0185 Y8.9574
G01 X9.1901 Y8.9574
G01 X9.1685 Y8.9361
G01 X9.1487 Y8.9157
G01 X9.1289 Y8.8946
G01 X9.1070 Y8.8703
G01 X9.0185 Y8.9574
G01 X8.5788 Y9.1374
G01 X9.4649 Y9.1374
G01 X9.4649 Y8.9536
G01 X9.4404 Y8.9355
G01 X9.4151 Y8.9158
G01 X9.3907 Y8.8960
G01 X9.3683 Y8.8768
G01 X9.3444 Y8.8555
G01 X9.3218 Y8.8344
G01 X9.2990 Y8.8120
G01 X9.2790 Y8.7915
G01 X9.2584 Y8.7695
G01 X9.2371 Y8.7457
G01 X9.2174 Y8.7226
G01 X9.1967 Y8.6971
G01 X9.1771 Y8.6718
G01 X9.1585 Y8.6465
G01 X9.1401 Y8.6203
G01 X9.1371 Y8.6160
G01 X9.1357 Y8.6139
G01 X9.1350 Y8.6128
G01 X9.1328 Y8.6096
G01 X9.1231 Y8.5949
G01 X8.5788 Y9.1374
G01 X8.1432 Y9.3174
G01 X9.6449 Y9.3174
G01 X9.6449 Y8.8575
G01 X9.6045 Y8.8316
G01 X9.5674 Y8.8056
G01 X9.5293 Y8.7767
G01 X9.4941 Y8.7476
G01 X9.4582 Y8.7156
G01 X9.4243 Y8.6828
G01 X9.3921 Y8.6489
G01 X9.3612 Y8.6138
G01 X9.3334 Y8.5797
G01 X9.3043 Y8.5409
G01 X9.2777 Y8.5024
G01 X9.2527 Y8.4629
G01 X9.2291 Y8.4221
G01 X9.2172 Y8.4000
G01 X9.2142 Y8.3942
G01 X9.2140 Y8.3939
G01 X9.2137 Y8.3933
G01 X9.2135 Y8.3929
G01 X9.2123 Y8.3904
G01 X9.2067 Y8.3795
G01 X9.1871 Y8.3383
G01 X9.1683 Y8.2943
G01 X8.1432 Y9.3174
G01 X7.7081 Y9.4974
G01 X9.8249 Y9.4974
G01 X9.8249 Y8.7512
G01 X9.7957 Y8.7364
G01 X9.7671 Y8.7208
G01 X9.7405 Y8.7050
G01 X9.7138 Y8.6881
G01 X9.6882 Y8.6707
G01 X9.6603 Y8.6505
G01 X9.6355 Y8.6312
G01 X9.6113 Y8.6111
G01 X9.5868 Y8.5893
G01 X9.5630 Y8.5668
G01 X9.5410 Y8.5446
G01 X9.5183 Y8.5202
G01 X9.4978 Y8.4967
G01 X9.4771 Y8.4713
G01 X9.4570 Y8.4449
G01 X9.4388 Y8.4193
G01 X9.4203 Y8.3916
G01 X9.4033 Y8.3641
G01 X9.3878 Y8.3371
G01 X9.3730 Y8.3094
G01 X9.3592 Y8.2814
G01 X9.3449 Y8.2501
G01 X9.3328 Y8.2210
G01 X9.3217 Y8.1916
G01 X9.3110 Y8.1606
G01 X9.3062 Y8.1454
G01 X9.3038 Y8.1372
G01 X9.3037 Y8.1369
G01 X9.3031 Y8.1348
G01 X9.3027 Y8.1337
G01 X9.3014 Y8.1292
G01 X9.2933 Y8.0992
G01 X9.2855 Y8.0667
G01 X9.2793 Y8.0361
G01 X9.2738 Y8.0038
G01 X9.2693 Y7.9710
G01 X9.2660 Y7.9394
G01 X7.7081 Y9.4974
G01 X7.2735 Y9.6774
G01 X9.9956 Y9.6774
G01 X10.0049 Y9.6681
G01 X10.0049 Y8.6305
G01 X9.9839 Y8.6232
G01 X9.9650 Y8.6161
G01 X9.9279 Y8.6006
G01 X9.9091 Y8.5920
G01 X9.8911 Y8.5831
G01 X9.8561 Y8.5643
G01 X9.8383 Y8.5538
G01 X9.8212 Y8.5432
G01 X9.7878 Y8.5207
G01 X9.7555 Y8.4966
G01 X9.7249 Y8.4714
G01 X9.7095 Y8.4576
G01 X9.6948 Y8.4439
G01 X9.6664 Y8.4153
G01 X9.6520 Y8.3997
G01 X9.6388 Y8.3846
G01 X9.6141 Y8.3542
G01 X9.6013 Y8.3373
G01 X9.5896 Y8.3209
G01 X9.5680 Y8.2883
G01 X9.5474 Y8.2537
G01 X9.5288 Y8.2186
G01 X9.5141 Y8.1877
G01 X9.5002 Y8.1547
G01 X9.4878 Y8.1214
G01 X9.4767 Y8.0873
G01 X9.4677 Y8.0549
G01 X9.4596 Y8.0200
G01 X9.4531 Y7.9850
G01 X9.4481 Y7.9501
G01 X9.4457 Y7.9279
G01 X9.4440 Y7.9056
G01 X9.4428 Y7.8839
G01 X9.4423 Y7.8632
G01 X9.4422 Y7.8519
G01 X9.4422 Y7.5087
G01 X7.2735 Y9.6774
G00 Z1.0000
G00 X10.3566 Y10.3974
G01 F60.00
G01 Z-0.1000
G01 F600.00
G01 X10.3706 Y10.3682
G01 X10.4112 Y10.3010
G01 X10.4566 Y10.2400
G01 X10.5093 Y10.1818
G01 X10.5675 Y10.1291
G01 X10.6285 Y10.0837
G01 X10.6957 Y10.0431
G01 X10.7249 Y10.0291
G01 X10.7249 Y7.9519
G01 X10.2622 Y7.9519
G01 X10.2548 Y7.9516
G01 X10.2451 Y7.9504
G01 X10.2332 Y7.9476
G01 X10.2239 Y7.9443
G01 X10.2151 Y7.9401
G01 X10.2066 Y7.9350
G01 X10.1988 Y7.9292
G01 X10.1915 Y7.9226
G01 X10.1834 Y7.9134
G01 X10.1791 Y7.9075
G01 X10.1752 Y7.9012
G01 X10.1718 Y7.8947
G01 X10.1680 Y7.8856
G01 X10.1658 Y7.8786
G01 X10.1641 Y7.8714
G01 X10.1630 Y7.8641
G01 X10.1622 Y7.8544
G01 X10.1622 Y7.2906
G01 X10.1630 Y7.2809
G01 X10.1641 Y7.2736
G01 X10.1665 Y7.2641
G01 X10.1698 Y7.2548
G01 X10.1729 Y7.2481
G01 X10.1764 Y7.2417
G01 X10.1804 Y7.2355
G01 X10.1849 Y7.2297
G01 X10.1898 Y7.2241
G01 X10.1950 Y7.2190
G01 X10.2007 Y7.2143
G01 X10.2066 Y7.2100
G01 X10.2172 Y7.2038
G01 X10.2239 Y7.2007
G01 X10.2308 Y7.1981
G01 X10.2379 Y7.1961
G01 X10.2451 Y7.1946
G01 X10.2524 Y7.1936
G01 X10.2597 Y7.1931
G01 X11.6592 Y7.1931
G01 X11.6690 Y7.1936
G01 X11.6787 Y7.1950
G01 X11.6882 Y7.1974
G01 X11.6975 Y7.2007
G01 X11.7042 Y7.2038
G01 X11.7106 Y7.2073
G01 X11.7207 Y7.2143
G01 X11.7264 Y7.2190
G01 X11.7316 Y7.2241
G01 X11.7365 Y7.2297
G01 X11.7410 Y7.2355
G01 X11.7450 Y7.2417
G01 X11.7485 Y7.2481
G01 X11.7534 Y7.2594
G01 X11.7556 Y7.2664
G01 X11.7573 Y7.2736
G01 X11.7589 Y7.2857
G01 X11.7592 Y7.2931
G01 X11.7592 Y7.8519
G01 X11.7587 Y7.8617
G01 X11.7577 Y7.8690
G01 X11.7562 Y7.8762
G01 X11.7534 Y7.8856
G01 X11.7485 Y7.8969
G01 X11.7423 Y7.9075
G01 X11.7380 Y7.9134
G01 X11.7333 Y7.9191
G01 X11.7245 Y7.9276
G01 X11.7148 Y7.9350
G01 X11.7085 Y7.9389
G01 X11.7020 Y7.9423
G01 X11.6906 Y7.9469
G01 X11.6787 Y7.9500
G01 X11.6690 Y7.9514
G01 X11.6592 Y7.9519
G01 X11.4251 Y7.9519
G01 X11.4251 Y10.0291
G01 X11.4543 Y10.0431
G01 X11.5174 Y10.0810
G01 X11.5235 Y10.0852
G01 X11.5844 Y10.1307
G01 X11.6371 Y10.1784
G01 X11.6441 Y10.1854
G01 X11.6934 Y10.2400
G01 X11.7388 Y10.3010
G01 X11.7781 Y10.3661
G01 X11.7827 Y10.3748
G01 X11.8141 Y10.4414
G01 X11.8390 Y10.5106
G01 X11.8419 Y10.5200
G01 X11.8596 Y10.5914
G01 X11.8705 Y10.6642
G01 X11.8714 Y10.6715
G01 X11.8750 Y10.7475
G01 X11.8715 Y10.8210
G01 X11.8705 Y10.8308
G01 X11.8596 Y10.9036
G01 X11.8419 Y10.9750
G01 X11.8390 Y10.9844
G01 X11.8159 Y11.0491
G01 X11.8121 Y11.0581
G01 X11.7805 Y11.1246
G01 X11.7402 Y11.1920
G01 X11.6934 Y11.2550
G01 X11.6441 Y11.3096
G01 X11.6389 Y11.3149
G01 X11.5825 Y11.3659
G01 X11.5195 Y11.4127
G01 X11.4521 Y11.4530
G01 X11.3856 Y11.4846
G01 X11.3766 Y11.4884
G01 X11.3072 Y11.5131
G01 X11.2359 Y11.5311
G01 X11.2262 Y11.5330
G01 X11.1583 Y11.5430
G01 X11.1485 Y11.5440
G01 X11.0750 Y11.5475
G01 X11.0015 Y11.5440
G01 X10.9917 Y11.5430
G01 X10.9189 Y11.5321
G01 X10.8475 Y11.5144
G01 X10.8381 Y11.5115
G01 X10.7689 Y11.4866
G01 X10.7023 Y11.4552
G01 X10.6936 Y11.4506
G01 X10.6285 Y11.4113
G01 X10.5675 Y11.3659
G01 X10.5129 Y11.3166
G01 X10.5059 Y11.3096
G01 X10.4582 Y11.2569
G01 X10.4127 Y11.1960
G01 X10.4085 Y11.1899
G01 X10.3706 Y11.1268
G01 X10.3566 Y11.0976
G01 X7.4100 Y11.0976
G01 X4.1351 Y14.3725
G01 X4.1351 Y19.8225
G01 X5.1750 Y20.8624
G01 X7.4500 Y20.8624
G01 X8.9333 Y19.3790
G01 X8.9283 Y19.3683
G01 X8.9255 Y19.3615
G01 X8.8959 Y19.2783
G01 X8.8743 Y19.1926
G01 X8.8724 Y19.1830
G01 X8.8596 Y19.0956
G01 X8.8551 Y19.0074
G01 X8.8551 Y18.9976
G01 X8.8592 Y18.9143
G01 X8.8602 Y18.9045
G01 X8.8733 Y18.8172
G01 X8.8946 Y18.7315
G01 X8.8974 Y18.7221
G01 X8.9273 Y18.6390
G01 X8.9650 Y18.5591
G01 X8.9696 Y18.5504
G01 X9.0151 Y18.4747
G01 X9.0706 Y18.3998
G01 X9.1332 Y18.3307
G01 X9.2023 Y18.2681
G01 X9.2772 Y18.2126
G01 X9.3572 Y18.1647
G01 X9.4415 Y18.1248
G01 X9.5292 Y18.0934
G01 X9.6197 Y18.0708
G01 X9.7070 Y18.0577
G01 X9.7168 Y18.0567
G01 X9.8050 Y18.0525
G01 X9.8932 Y18.0567
G01 X9.9030 Y18.0577
G01 X9.9903 Y18.0708
G01 X10.0760 Y18.0921
G01 X10.0854 Y18.0949
G01 X10.1685 Y18.1248
G01 X10.2484 Y18.1625
G01 X10.2571 Y18.1671
G01 X10.3328 Y18.2126
G01 X10.4038 Y18.2651
G01 X10.4114 Y18.2713
G01 X10.4768 Y18.3307
G01 X10.5362 Y18.3961
G01 X10.5424 Y18.4037
G01 X10.5949 Y18.4747
G01 X10.6404 Y18.5504
G01 X10.6450 Y18.5591
G01 X10.6827 Y18.6390
G01 X10.7126 Y18.7221
G01 X10.7154 Y18.7315
G01 X10.7367 Y18.8172
G01 X10.7498 Y18.9045
G01 X10.7508 Y18.9143
G01 X10.7550 Y19.0025
G01 X10.7508 Y19.0907
G01 X10.7498 Y19.1005
G01 X10.7367 Y19.1878
G01 X10.7154 Y19.2735
G01 X10.7126 Y19.2829
G01 X10.6827 Y19.3660
G01 X10.6440 Y19.4481
G01 X10.6404 Y19.4546
G01 X10.5949 Y19.5303
G01 X10.5394 Y19.6052
G01 X10.4768 Y19.6743
G01 X10.4077 Y19.7369
G01 X10.3328 Y19.7924
G01 X10.2528 Y19.8403
G01 X10.1685 Y19.8802
G01 X10.0854 Y19.9101
G01 X10.0760 Y19.9129
G01 X9.9903 Y19.9342
G01 X9.8981 Y19.9479
G01 X9.8050 Y19.9525
G01 X9.7168 Y19.9483
G01 X9.7070 Y19.9473
G01 X9.6197 Y19.9342
G01 X9.5340 Y19.9129
G01 X9.5246 Y19.9101
G01 X9.4460 Y19.8820
G01 X9.4392 Y19.8792
G01 X9.4285 Y19.8742
G01 X7.8426 Y21.4601
G01 X7.8171 Y21.4831
G01 X7.7895 Y21.5036
G01 X7.7601 Y21.5213
G01 X7.7335 Y21.5340
G01 X7.7244 Y21.5377
G01 X7.6967 Y21.5475
G01 X7.6633 Y21.5559
G01 X7.6293 Y21.5609
G01 X7.5950 Y21.5626
G01 X5.0300 Y21.5626
G01 X4.9957 Y21.5609
G01 X4.9665 Y21.5567
G01 X4.9569 Y21.5548
G01 X4.9283 Y21.5475
G01 X4.9006 Y21.5377
G01 X4.8915 Y21.5340
G01 X4.8671 Y21.5224
G01 X4.8396 Y21.5062
G01 X4.8314 Y21.5008
G01 X4.8079 Y21.4831
G01 X4.7824 Y21.4601
G01 X3.5357 Y20.2133
G01 X3.5144 Y20.1896
G01 X3.4967 Y20.1661
G01 X3.4913 Y20.1579
G01 X3.4762 Y20.1326
G01 X3.4635 Y20.1060
G01 X3.4598 Y20.0969
G01 X3.4500 Y20.0692
G01 X3.4416 Y20.0358
G01 X3.4366 Y20.0018
G01 X3.4349 Y19.9675
G01 X3.4349 Y14.2275
G01 X3.4366 Y14.1932
G01 X3.4408 Y14.1640
G01 X3.4427 Y14.1544
G01 X3.4500 Y14.1258
G01 X3.4598 Y14.0981
G01 X3.4635 Y14.0890
G01 X3.4751 Y14.0646
G01 X3.4913 Y14.0371
G01 X3.4967 Y14.0289
G01 X3.5144 Y14.0054
G01 X3.5374 Y13.9799
G01 X7.0174 Y10.4999
G01 X7.0392 Y10.4801
G01 X7.0468 Y10.4738
G01 X7.0705 Y10.4564
G01 X7.1000 Y10.4387
G01 X7.1310 Y10.4240
G01 X7.1587 Y10.4140
G01 X7.1681 Y10.4111
G01 X7.1967 Y10.4041
G01 X7.2258 Y10.3997
G01 X7.2356 Y10.3987
G01 X7.2625 Y10.3974
G01 X10.3566 Y10.3974
G00 Z1.0000
G00 X11.9652 Y9.7470
G01 F60.00
G01 Z-0.1000
G01 F600.00
G01 X12.0047 Y9.7828
G01 X12.0249 Y9.8023
G01 X12.0412 Y9.8195
G01 X12.0899 Y9.8731
G01 X12.0899 Y8.3253
G01 X12.0747 Y8.3387
G01 X12.0609 Y8.3501
G01 X12.0457 Y8.3620
G01 X12.0304 Y8.3732
G01 X12.0129 Y8.3853
G01 X11.9988 Y8.3944
G01 X11.9825 Y8.4042
G01 X11.9661 Y8.4135
G01 X11.9652 Y9.7470
G00 Z1.0000
G00 X15.1651 Y10.1443
G01 F60.00
G01 Z-0.1000
G01 F600.00
G01 X15.1820 Y10.1162
G01 X15.1944 Y10.0974
G01 X15.2499 Y10.0222
G01 X15.2597 Y10.0099
G01 X15.2701 Y9.9978
G01 X15.3254 Y9.9369
G01 X15.3379 Y9.9242
G01 X15.3487 Y9.9139
G01 X15.4028 Y9.8648
G01 X15.4157 Y9.8536
G01 X15.4343 Y9.8389
G01 X15.4994 Y9.7907
G01 X15.5142 Y9.7806
G01 X15.5268 Y9.7726
G01 X15.5895 Y9.7350
G01 X15.6043 Y9.7266
G01 X15.6273 Y9.7148
G01 X15.6914 Y9.6845
G01 X15.7070 Y9.6775
G01 X15.7311 Y9.6680
G01 X15.7979 Y9.6442
G01 X15.8141 Y9.6388
G01 X15.8368 Y9.6322
G01 X15.9155 Y9.6126
G01 X15.9330 Y9.6090
G01 X15.9477 Y9.6064
G01 X16.0200 Y9.5957
G01 X16.0369 Y9.5935
G01 X16.0627 Y9.5915
G01 X16.1335 Y9.5880
G01 X16.1506 Y9.5875
G01 X16.1776 Y9.5881
G01 X16.2473 Y9.5915
G01 X16.2665 Y9.5929
G01 X16.2900 Y9.5957
G01 X16.3746 Y9.6085
G01 X16.4023 Y9.6145
G01 X16.4710 Y9.6317
G01 X16.4896 Y9.6368
G01 X16.5132 Y9.6445
G01 X16.5789 Y9.6680
G01 X16.5948 Y9.6741
G01 X16.6186 Y9.6845
G01 X16.6827 Y9.7148
G01 X16.6979 Y9.7224
G01 X16.7186 Y9.7339
G01 X16.7832 Y9.7726
G01 X16.8013 Y9.7842
G01 X16.8179 Y9.7960
G01 X16.8786 Y9.8411
G01 X16.8926 Y9.8522
G01 X16.9047 Y9.8626
G01 X16.9613 Y9.9139
G01 X16.9768 Y9.9288
G01 X16.9908 Y9.9436
G01 X17.0473 Y10.0063
G01 X17.0636 Y10.0268
G01 X17.1085 Y10.0873
G01 X17.1183 Y10.1012
G01 X17.1293 Y10.1183
G01 X17.1675 Y10.1820
G01 X17.1770 Y10.1987
G01 X17.1867 Y10.2179
G01 X17.2180 Y10.2839
G01 X17.2275 Y10.3056
G01 X17.2345 Y10.3236
G01 X17.2602 Y10.3958
G01 X17.2688 Y10.4237
G01 X17.2880 Y10.5002
G01 X17.2923 Y10.5190
G01 X17.2961 Y10.5402
G01 X17.3068 Y10.6125
G01 X17.3092 Y10.6316
G01 X17.3108 Y10.6519
G01 X17.3146 Y10.7282
G01 X17.3150 Y10.7497
G01 X17.3145 Y10.7690
G01 X17.3105 Y10.8477
G01 X17.3087 Y10.8680
G01 X17.3052 Y10.8934
G01 X18.8381 Y12.4264
G01 X18.9047 Y12.4264
G01 X18.9047 Y8.6775
G01 X18.8624 Y8.6623
G01 X18.8415 Y8.6539
G01 X18.8272 Y8.6474
G01 X18.7441 Y8.6079
G01 X18.7202 Y8.5948
G01 X18.6491 Y8.5522
G01 X18.6337 Y8.5426
G01 X18.6189 Y8.5325
G01 X18.5476 Y8.4797
G01 X18.5324 Y8.4679
G01 X18.5144 Y8.4525
G01 X18.4521 Y8.3960
G01 X18.4375 Y8.3819
G01 X18.4242 Y8.3679
G01 X18.3678 Y8.3056
G01 X18.3495 Y8.2837
G01 X17.1292 Y8.2827
G01 X17.1079 Y8.2900
G01 X17.0884 Y8.2958
G01 X17.0707 Y8.3002
G01 X17.0508 Y8.3043
G01 X17.0309 Y8.3075
G01 X17.0107 Y8.3099
G01 X16.9926 Y8.3112
G01 X16.9722 Y8.3119
G01 X15.5708 Y8.3119
G01 X15.5414 Y8.3110
G01 X15.5123 Y8.3082
G01 X15.4832 Y8.3035
G01 X15.4679 Y8.3002
G01 X15.4524 Y8.2964
G01 X15.4244 Y8.2880
G01 X15.3968 Y8.2777
G01 X15.3701 Y8.2658
G01 X15.3460 Y8.2532
G01 X15.3210 Y8.2381
G01 X15.2986 Y8.2227
G01 X15.2861 Y8.2132
G01 X15.2737 Y8.2031
G01 X15.2520 Y8.1835
G01 X15.2329 Y8.1641
G01 X15.2138 Y8.1420
G01 X15.1960 Y8.1186
G01 X15.1798 Y8.0943
G01 X15.1651 Y8.0687
G01 X15.1651 Y10.1443
G01 X15.3451 Y9.6809
G01 X15.3922 Y9.6461
G01 X15.4191 Y9.6277
G01 X15.4357 Y9.6174
G01 X15.4979 Y9.5801
G01 X15.5282 Y9.5631
G01 X15.5494 Y9.5526
G01 X15.6135 Y9.5222
G01 X15.6371 Y9.5116
G01 X15.6658 Y9.5003
G01 X15.7367 Y9.4749
G01 X15.7607 Y9.4668
G01 X15.7864 Y9.4594
G01 X15.8635 Y9.4400
G01 X15.8836 Y9.4353
G01 X15.9025 Y9.4315
G01 X15.9202 Y9.4285
G01 X15.9941 Y9.4176
G01 X16.0146 Y9.4149
G01 X16.0338 Y9.4130
G01 X16.0528 Y9.4118
G01 X16.1280 Y9.4081
G01 X16.1517 Y9.4075
G01 X16.1847 Y9.4082
G01 X16.2572 Y9.4118
G01 X16.2797 Y9.4133
G01 X16.2965 Y9.4150
G01 X16.3159 Y9.4176
G01 X16.3898 Y9.4285
G01 X16.4132 Y9.4326
G01 X16.4465 Y9.4400
G01 X16.5180 Y9.4579
G01 X16.5419 Y9.4646
G01 X16.5733 Y9.4749
G01 X16.6426 Y9.4997
G01 X16.6657 Y9.5087
G01 X16.6965 Y9.5222
G01 X16.7631 Y9.5537
G01 X16.7886 Y9.5668
G01 X16.8121 Y9.5801
G01 X16.8807 Y9.6213
G01 X16.9040 Y9.6364
G01 X16.9251 Y9.6514
G01 X16.9852 Y9.6960
G01 X17.0093 Y9.7152
G01 X17.0272 Y9.7307
G01 X17.0798 Y9.7783
G01 X17.1002 Y9.7976
G01 X17.1208 Y9.8191
G01 X17.1747 Y9.8786
G01 X17.1929 Y9.9000
G01 X17.2088 Y9.9204
G01 X17.2540 Y9.9814
G01 X17.2710 Y10.0058
G01 X17.2857 Y10.0291
G01 X17.3308 Y10.1050
G01 X17.3470 Y10.1357
G01 X17.3812 Y10.2080
G01 X17.3921 Y10.2327
G01 X17.4022 Y10.2583
G01 X17.4291 Y10.3334
G01 X17.4382 Y10.3617
G01 X17.4453 Y10.3872
G01 X17.4665 Y10.4729
G01 X17.4703 Y10.4915
G01 X17.4732 Y10.5081
G01 X17.4848 Y10.5855
G01 X17.4879 Y10.6096
G01 X17.4900 Y10.6340
G01 X17.4943 Y10.7178
G01 X17.4950 Y10.7409
G01 X17.4946 Y10.7698
G01 X17.4919 Y10.8256
G01 X18.7247 Y12.0584
G01 X18.7247 Y8.7981
G01 X18.6681 Y8.7712
G01 X18.6492 Y8.7614
G01 X18.6346 Y8.7532
G01 X18.5478 Y8.7013
G01 X18.5272 Y8.6880
G01 X18.5079 Y8.6743
G01 X18.4331 Y8.6188
G01 X18.4182 Y8.6070
G01 X18.4003 Y8.5919
G01 X18.3341 Y8.5320
G01 X18.3190 Y8.5179
G01 X18.2985 Y8.4971
G01 X18.2689 Y8.4646
G01 X17.1589 Y8.4627
G01 X17.1353 Y8.4696
G01 X17.1134 Y8.4751
G01 X17.0894 Y8.4802
G01 X17.0672 Y8.4841
G01 X17.0429 Y8.4875
G01 X17.0204 Y8.4897
G01 X16.9959 Y8.4913
G01 X16.9739 Y8.4919
G01 X15.5686 Y8.4919
G01 X15.5416 Y8.4912
G01 X15.5114 Y8.4891
G01 X15.4835 Y8.4859
G01 X15.4549 Y8.4813
G01 X15.4252 Y8.4751
G01 X15.3980 Y8.4681
G01 X15.3721 Y8.4603
G01 X15.3451 Y8.4508
G01 X15.3451 Y9.6809
G01 X15.5255 Y9.3647
G01 X15.5629 Y9.3476
G01 X15.5998 Y9.3328
G01 X15.6867 Y9.3017
G01 X15.7074 Y9.2949
G01 X15.7304 Y9.2881
G01 X15.7504 Y9.2828
G01 X15.8213 Y9.2650
G01 X15.8547 Y9.2575
G01 X15.8916 Y9.2508
G01 X15.9778 Y9.2381
G01 X16.0033 Y9.2351
G01 X16.0299 Y9.2328
G01 X16.1172 Y9.2284
G01 X16.1572 Y9.2275
G01 X16.1944 Y9.2284
G01 X16.2757 Y9.2325
G01 X16.2968 Y9.2342
G01 X16.3196 Y9.2365
G01 X16.3428 Y9.2396
G01 X16.4230 Y9.2516
G01 X16.4488 Y9.2562
G01 X16.4750 Y9.2617
G01 X16.5636 Y9.2838
G01 X16.6005 Y9.2943
G01 X16.6290 Y9.3036
G01 X16.6991 Y9.3287
G01 X16.7331 Y9.3417
G01 X16.7516 Y9.3496
G01 X16.7712 Y9.3585
G01 X16.8386 Y9.3903
G01 X16.8637 Y9.4029
G01 X16.8989 Y9.4223
G01 X16.9683 Y9.4638
G01 X16.9958 Y9.4812
G01 X17.0219 Y9.4992
G01 X17.0902 Y9.5497
G01 X17.1163 Y9.5701
G01 X17.1440 Y9.5937
G01 X17.2064 Y9.6502
G01 X17.2278 Y9.6708
G01 X17.2495 Y9.6931
G01 X17.3074 Y9.7569
G01 X17.3282 Y9.7811
G01 X17.3501 Y9.8088
G01 X17.3976 Y9.8728
G01 X17.4151 Y9.8975
G01 X17.4333 Y9.9255
G01 X17.4770 Y9.9981
G01 X17.4916 Y10.0237
G01 X17.5087 Y10.0568
G01 X17.5430 Y10.1290
G01 X17.5531 Y10.1514
G01 X17.5626 Y10.1740
G01 X17.5729 Y10.2010
G01 X17.6021 Y10.2829
G01 X17.6119 Y10.3142
G01 X17.6203 Y10.3451
G01 X17.6389 Y10.4195
G01 X17.6463 Y10.4537
G01 X17.6518 Y10.4852
G01 X17.6644 Y10.5703
G01 X17.6680 Y10.6024
G01 X17.6703 Y10.6323
G01 X17.6744 Y10.7158
G01 X17.6750 Y10.7541
G01 X18.5447 Y11.6238
G01 X18.5447 Y8.9092
G01 X18.4614 Y8.8594
G01 X18.4332 Y8.8416
G01 X18.4033 Y8.8209
G01 X18.3320 Y8.7681
G01 X18.3074 Y8.7490
G01 X18.2815 Y8.7271
G01 X18.2118 Y8.6641
G01 X18.1910 Y8.6445
G01 X17.1844 Y8.6428
G01 X17.1590 Y8.6493
G01 X17.1343 Y8.6548
G01 X17.1058 Y8.6602
G01 X17.0810 Y8.6640
G01 X17.0553 Y8.6672
G01 X17.0303 Y8.6695
G01 X17.0036 Y8.6711
G01 X16.9755 Y8.6719
G01 X15.5705 Y8.6719
G01 X15.5479 Y8.6716
G01 X15.5264 Y8.6707
G01 X15.5255 Y9.3647
G01 X15.7066 Y9.1082
G01 X15.7896 Y9.0875
G01 X15.8133 Y9.0822
G01 X15.8366 Y9.0776
G01 X15.8673 Y9.0724
G01 X15.9428 Y9.0612
G01 X15.9673 Y9.0580
G01 X15.9906 Y9.0555
G01 X16.0150 Y9.0534
G01 X16.0361 Y9.0521
G01 X16.1130 Y9.0484
G01 X16.1442 Y9.0476
G01 X16.1660 Y9.0476
G01 X16.1903 Y9.0481
G01 X16.2765 Y9.0523
G01 X16.3016 Y9.0539
G01 X16.3238 Y9.0559
G01 X16.3675 Y9.0613
G01 X16.3702 Y9.0617
G01 X16.4383 Y9.0718
G01 X16.4398 Y9.0720
G01 X16.4595 Y9.0752
G01 X16.4910 Y9.0810
G01 X16.5204 Y9.0875
G01 X16.6113 Y9.1102
G01 X16.6345 Y9.1166
G01 X16.6569 Y9.1233
G01 X16.6883 Y9.1337
G01 X16.7608 Y9.1596
G01 X16.8028 Y9.1758
G01 X16.8241 Y9.1848
G01 X16.8478 Y9.1956
G01 X16.9185 Y9.2290
G01 X16.9468 Y9.2432
G01 X16.9682 Y9.2547
G01 X16.9875 Y9.2656
G01 X17.0670 Y9.3132
G01 X17.0923 Y9.3293
G01 X17.1179 Y9.3466
G01 X17.1373 Y9.3605
G01 X17.1948 Y9.4032
G01 X17.2294 Y9.4301
G01 X17.2632 Y9.4588
G01 X17.3323 Y9.5215
G01 X17.3508 Y9.5392
G01 X17.3687 Y9.5572
G01 X17.3887 Y9.5785
G01 X17.4443 Y9.6400
G01 X17.4637 Y9.6624
G01 X17.4829 Y9.6862
G01 X17.4983 Y9.7064
G01 X17.5467 Y9.7717
G01 X17.5629 Y9.7948
G01 X17.5789 Y9.8190
G01 X17.5941 Y9.8434
G01 X17.6397 Y9.9198
G01 X17.6567 Y9.9508
G01 X17.6728 Y9.9825
G01 X17.7126 Y10.0671
G01 X17.7236 Y10.0921
G01 X17.7339 Y10.1177
G01 X17.7431 Y10.1422
G01 X17.7729 Y10.2262
G01 X17.7834 Y10.2593
G01 X17.7929 Y10.2937
G01 X17.8168 Y10.3897
G01 X17.8239 Y10.4237
G01 X17.8296 Y10.4571
G01 X17.8418 Y10.5391
G01 X17.8460 Y10.5732
G01 X17.8495 Y10.6141
G01 X17.8528 Y10.6773
G01 X18.3647 Y11.1893
G01 X18.3647 Y9.0113
G01 X18.3346 Y8.9922
G01 X18.3061 Y8.9727
G01 X18.2142 Y8.9047
G01 X18.1924 Y8.8874
G01 X18.1718 Y8.8703
G01 X18.1206 Y8.8244
G01 X17.2073 Y8.8228
G01 X17.1791 Y8.8293
G01 X17.1520 Y8.8348
G01 X17.1233 Y8.8397
G01 X17.0946 Y8.8438
G01 X17.0636 Y8.8473
G01 X17.0361 Y8.8496
G01 X17.0069 Y8.8511
G01 X16.9784 Y8.8518
G01 X15.7076 Y8.8519
G01 X15.7066 Y9.1082
G01 X16.9228 Y9.0319
G01 X16.9999 Y9.0685
G01 X17.0391 Y9.0884
G01 X17.0807 Y9.1116
G01 X17.1534 Y9.1551
G01 X17.1884 Y9.1770
G01 X17.2211 Y9.1991
G01 X17.2455 Y9.2167
G01 X17.3176 Y9.2704
G01 X17.3494 Y9.2957
G01 X17.3773 Y9.3194
G01 X17.4453 Y9.3808
G01 X17.4703 Y9.4043
G01 X17.4928 Y9.4267
G01 X17.5153 Y9.4503
G01 X17.5726 Y9.5134
G01 X17.5920 Y9.5355
G01 X17.6145 Y9.5626
G01 X17.6359 Y9.5899
G01 X17.6871 Y9.6588
G01 X17.7068 Y9.6864
G01 X17.7236 Y9.7113
G01 X17.7395 Y9.7361
G01 X17.7908 Y9.8216
G01 X17.8106 Y9.8568
G01 X17.8303 Y9.8949
G01 X17.8701 Y9.9786
G01 X17.8853 Y10.0124
G01 X17.8984 Y10.0440
G01 X17.9109 Y10.0769
G01 X17.9395 Y10.1572
G01 X17.9529 Y10.1981
G01 X17.9655 Y10.2422
G01 X17.9865 Y10.3255
G01 X17.9942 Y10.3583
G01 X18.0008 Y10.3909
G01 X18.0076 Y10.4299
G01 X18.0211 Y10.5217
G01 X18.0256 Y10.5594
G01 X18.0289 Y10.5989
G01 X18.1847 Y10.7547
G01 X18.1847 Y9.1070
G01 X18.1014 Y9.0450
G01 X18.0769 Y9.0255
G01 X18.0516 Y9.0042
G01 X17.2281 Y9.0028
G01 X17.1916 Y9.0105
G01 X17.1536 Y9.0172
G01 X17.1173 Y9.0224
G01 X17.0785 Y9.0267
G01 X17.0426 Y9.0295
G01 X17.0072 Y9.0312
G01 X16.9772 Y9.0319
G01 X16.9228 Y9.0319
G01 X17.4951 Y9.1833
G01 X17.5793 Y9.2596
G01 X17.6044 Y9.2837
G01 X17.6305 Y9.3102
G01 X17.6558 Y9.3371
G01 X17.7183 Y9.4063
G01 X17.7449 Y9.4377
G01 X17.7720 Y9.4715
G01 X17.7882 Y9.4929
G01 X17.8448 Y9.5696
G01 X17.8664 Y9.6009
G01 X17.8892 Y9.6361
G01 X17.9400 Y9.7203
G01 X17.9590 Y9.7532
G01 X17.9822 Y9.7964
G01 X18.0047 Y9.8422
G01 X18.0047 Y9.1976
G01 X17.9872 Y9.1841
G01 X17.4951 Y9.1833
G00 Z1.0000
G00 X16.4154 Y11.5031
G01 F60.00
G01 Z-0.1000
G01 F600.00
G01 X16.3849 Y11.5137
G01 X16.3135 Y11.5316
G01 X16.2359 Y11.5434
G01 X16.2285 Y11.5440
G01 X16.1550 Y11.5475
G01 X16.0790 Y11.5439
G01 X16.0717 Y11.5430
G01 X15.9989 Y11.5321
G01 X15.9228 Y11.5131
G01 X15.8489 Y11.4866
G01 X15.7801 Y11.4542
G01 X15.7736 Y11.4506
G01 X15.7105 Y11.4127
G01 X15.6475 Y11.3659
G01 X15.5893 Y11.3132
G01 X15.5366 Y11.2550
G01 X15.4898 Y11.1920
G01 X15.4495 Y11.1246
G01 X15.4159 Y11.0536
G01 X15.3902 Y10.9821
G01 X15.3881 Y10.9750
G01 X15.3704 Y10.9036
G01 X15.3589 Y10.8259
G01 X15.3550 Y10.7475
G01 X15.3589 Y10.6691
G01 X15.3704 Y10.5914
G01 X15.3894 Y10.5153
G01 X15.4159 Y10.4414
G01 X15.4495 Y10.3704
G01 X15.4898 Y10.3030
G01 X15.5366 Y10.2400
G01 X15.5893 Y10.1818
G01 X15.6475 Y10.1291
G01 X15.7105 Y10.0823
G01 X15.7779 Y10.0420
G01 X15.8489 Y10.0084
G01 X15.9204 Y9.9827
G01 X15.9941 Y9.9639
G01 X16.0038 Y9.9620
G01 X16.0766 Y9.9514
G01 X16.1501 Y9.9476
G01 X16.1599 Y9.9476
G01 X16.2334 Y9.9514
G01 X16.3062 Y9.9620
G01 X16.3159 Y9.9639
G01 X16.3872 Y9.9819
G01 X16.4566 Y10.0066
G01 X16.4656 Y10.0104
G01 X16.5321 Y10.0420
G01 X16.5995 Y10.0823
G01 X16.6586 Y10.1261
G01 X16.6662 Y10.1323
G01 X16.7207 Y10.1818
G01 X16.7734 Y10.2400
G01 X16.8173 Y10.2990
G01 X16.8228 Y10.3072
G01 X16.8605 Y10.3704
G01 X16.8921 Y10.4369
G01 X16.8959 Y10.4459
G01 X16.9206 Y10.5153
G01 X16.9391 Y10.5890
G01 X16.9505 Y10.6642
G01 X16.9515 Y10.6740
G01 X16.9550 Y10.7475
G01 X16.9514 Y10.8235
G01 X16.9405 Y10.8987
G01 X16.9391 Y10.9060
G01 X16.9212 Y10.9774
G01 X16.9106 Y11.0079
G01 X18.6890 Y12.7864
G01 X19.2647 Y12.7864
G01 X19.2647 Y8.4176
G01 X19.2343 Y8.3872
G01 X19.1544 Y8.3752
G01 X19.0735 Y8.3551
G01 X19.0641 Y8.3522
G01 X18.9856 Y8.3240
G01 X18.9057 Y8.2862
G01 X18.8300 Y8.2408
G01 X18.7590 Y8.1882
G01 X18.6972 Y8.1323
G01 X18.6902 Y8.1253
G01 X18.6375 Y8.0672
G01 X18.6313 Y8.0596
G01 X18.5817 Y7.9925
G01 X18.5396 Y7.9226
G01 X17.0385 Y7.9226
G01 X17.0312 Y7.9292
G01 X17.0234 Y7.9350
G01 X17.0149 Y7.9401
G01 X17.0061 Y7.9443
G01 X16.9968 Y7.9476
G01 X16.9873 Y7.9500
G01 X16.9776 Y7.9514
G01 X16.9678 Y7.9519
G01 X15.5708 Y7.9519
G01 X15.5634 Y7.9516
G01 X15.5561 Y7.9508
G01 X15.5489 Y7.9495
G01 X15.5418 Y7.9476
G01 X15.5348 Y7.9452
G01 X15.5280 Y7.9423
G01 X15.5215 Y7.9389
G01 X15.5152 Y7.9350
G01 X15.5093 Y7.9307
G01 X15.5036 Y7.9260
G01 X15.4984 Y7.9209
G01 X15.4935 Y7.9153
G01 X15.4877 Y7.9075
G01 X15.4838 Y7.9012
G01 X15.4804 Y7.8947
G01 X15.4775 Y7.8879
G01 X15.4751 Y7.8809
G01 X15.4732 Y7.8738
G01 X15.4719 Y7.8666
G01 X15.4711 Y7.8593
G01 X15.4708 Y7.8519
G01 X15.4708 Y7.2906
G01 X15.4713 Y7.2833
G01 X15.4723 Y7.2760
G01 X15.4738 Y7.2688
G01 X15.4758 Y7.2617
G01 X15.4784 Y7.2548
G01 X15.4815 Y7.2481
G01 X15.4850 Y7.2417
G01 X15.4890 Y7.2355
G01 X15.4967 Y7.2259
G01 X15.5055 Y7.2174
G01 X15.5152 Y7.2100
G01 X15.5258 Y7.2038
G01 X15.5371 Y7.1989
G01 X15.5489 Y7.1955
G01 X15.5610 Y7.1936
G01 X15.5708 Y7.1931
G01 X16.9703 Y7.1931
G01 X16.9800 Y7.1939
G01 X16.9897 Y7.1955
G01 X16.9968 Y7.1974
G01 X17.0061 Y7.2007
G01 X17.0149 Y7.2049
G01 X17.0234 Y7.2100
G01 X17.0312 Y7.2158
G01 X17.0385 Y7.2224
G01 X18.4718 Y7.2224
G01 X18.4985 Y7.1481
G01 X18.5341 Y7.0726
G01 X18.5387 Y7.0640
G01 X18.5791 Y6.9966
G01 X18.5845 Y6.9885
G01 X18.6343 Y6.9215
G01 X18.6936 Y6.8561
G01 X18.7590 Y6.7968
G01 X18.8260 Y6.7470
G01 X18.8341 Y6.7416
G01 X18.9057 Y6.6988
G01 X18.9811 Y6.6630
G01 X18.9902 Y6.6592
G01 X19.0641 Y6.6328
G01 X19.0735 Y6.6299
G01 X19.1544 Y6.6098
G01 X19.2418 Y6.5968
G01 X19.3300 Y6.5925
G01 X19.4133 Y6.5965
G01 X19.4231 Y6.5974
G01 X19.5056 Y6.6098
G01 X19.5865 Y6.6299
G01 X19.5959 Y6.6328
G01 X19.6698 Y6.6592
G01 X19.6789 Y6.6630
G01 X19.7543 Y6.6988
G01 X19.8259 Y6.7416
G01 X19.8320 Y6.7456
G01 X19.9010 Y6.7968
G01 X19.9664 Y6.8561
G01 X20.0257 Y6.9215
G01 X20.0755 Y6.9885
G01 X20.0797 Y6.9945
G01 X20.1237 Y7.0682
G01 X20.1595 Y7.1436
G01 X20.1633 Y7.1527
G01 X20.1897 Y7.2266
G01 X20.1926 Y7.2360
G01 X20.2127 Y7.3169
G01 X20.2247 Y7.3968
G01 X20.4619 Y7.6341
G01 X20.5063 Y7.6832
G01 X20.5473 Y7.7384
G01 X20.5826 Y7.7974
G01 X20.6100 Y7.8550
G01 X20.6138 Y7.8641
G01 X20.6351 Y7.9242
G01 X20.6508 Y7.9861
G01 X20.6527 Y7.9957
G01 X20.6619 Y8.0589
G01 X20.6653 Y8.1275
G01 X20.6653 Y15.5125
G01 X20.8175 Y15.5125
G01 X20.8248 Y15.5130
G01 X20.8321 Y15.5140
G01 X20.8417 Y15.5161
G01 X20.8487 Y15.5183
G01 X20.8555 Y15.5211
G01 X20.8621 Y15.5243
G01 X20.8726 Y15.5307
G01 X20.8784 Y15.5352
G01 X20.8840 Y15.5401
G01 X20.8923 Y15.5491
G01 X20.8968 Y15.5549
G01 X20.9008 Y15.5611
G01 X20.9043 Y15.5675
G01 X20.9074 Y15.5742
G01 X20.9100 Y15.5811
G01 X20.9120 Y15.5882
G01 X20.9142 Y15.6003
G01 X20.9150 Y15.6125
G01 X20.9150 Y17.3150
G01 X20.9139 Y17.3272
G01 X20.9114 Y17.3392
G01 X20.9074 Y17.3508
G01 X20.9032 Y17.3596
G01 X20.8981 Y17.3681
G01 X20.8907 Y17.3778
G01 X20.8840 Y17.3849
G01 X20.8746 Y17.3928
G01 X20.8664 Y17.3983
G01 X20.8600 Y17.4018
G01 X20.8533 Y17.4049
G01 X20.8464 Y17.4075
G01 X20.8393 Y17.4095
G01 X20.8321 Y17.4110
G01 X20.8248 Y17.4120
G01 X20.8150 Y17.4125
G01 X19.1150 Y17.4125
G01 X19.1028 Y17.4117
G01 X19.0907 Y17.4095
G01 X19.0813 Y17.4067
G01 X19.0700 Y17.4018
G01 X19.0615 Y17.3970
G01 X19.0516 Y17.3898
G01 X19.0426 Y17.3815
G01 X19.0347 Y17.3721
G01 X19.0305 Y17.3660
G01 X19.0257 Y17.3575
G01 X19.0226 Y17.3508
G01 X19.0200 Y17.3439
G01 X19.0174 Y17.3344
G01 X19.0161 Y17.3272
G01 X19.0153 Y17.3199
G01 X19.0150 Y17.3125
G01 X19.0151 Y15.6076
G01 X19.0158 Y15.6003
G01 X19.0169 Y15.5930
G01 X19.0186 Y15.5858
G01 X19.0208 Y15.5788
G01 X19.0236 Y15.5720
G01 X19.0268 Y15.5654
G01 X19.0305 Y15.5590
G01 X19.0347 Y15.5529
G01 X19.0393 Y15.5472
G01 X19.0443 Y15.5418
G01 X19.0535 Y15.5337
G01 X19.0594 Y15.5294
G01 X19.0657 Y15.5255
G01 X19.0722 Y15.5221
G01 X19.0790 Y15.5192
G01 X19.0860 Y15.5168
G01 X19.0955 Y15.5144
G01 X19.1052 Y15.5130
G01 X19.1125 Y15.5125
G01 X19.2647 Y15.5125
G01 X19.2647 Y13.4866
G01 X18.5440 Y13.4866
G01 X18.5121 Y13.4851
G01 X18.4805 Y13.4807
G01 X18.4709 Y13.4788
G01 X18.4424 Y13.4715
G01 X18.4146 Y13.4617
G01 X18.4055 Y13.4580
G01 X18.3790 Y13.4453
G01 X18.3475 Y13.4262
G01 X18.3219 Y13.4072
G01 X18.2964 Y13.3841
G01 X16.4154 Y11.5031
G00 Z1.0000
G00 X14.9851 Y11.6092
G01 F60.00
G01 Z-0.1000
G01 F600.00
G01 X14.9953 Y11.5921
G01 X15.0028 Y11.5805
G01 X15.0239 Y11.5520
G01 X15.0328 Y11.5415
G01 X15.0489 Y11.5240
G01 X15.0587 Y11.5144
G01 X15.0714 Y11.5028
G01 X15.0801 Y11.4953
G01 X15.0908 Y11.4867
G01 X15.1100 Y11.4727
G01 X15.1215 Y11.4651
G01 X15.1402 Y11.4539
G01 X15.1501 Y11.4485
G01 X15.1799 Y11.4343
G01 X15.1950 Y11.4283
G01 X15.2174 Y11.4204
G01 X15.2306 Y11.4165
G01 X15.2472 Y11.4123
G01 X15.2695 Y11.4077
G01 X15.2911 Y11.4045
G01 X15.3047 Y11.4030
G01 X15.3285 Y11.4017
G01 X15.3422 Y11.4015
G01 X15.3753 Y11.4030
G01 X15.3889 Y11.4045
G01 X15.4105 Y11.4077
G01 X15.4240 Y11.4102
G01 X15.4370 Y11.4133
G01 X15.4050 Y11.3780
G01 X15.3945 Y11.3656
G01 X15.3481 Y11.3032
G01 X15.3376 Y11.2881
G01 X15.2975 Y11.2214
G01 X15.2897 Y11.2075
G01 X15.2552 Y11.1351
G01 X15.2479 Y11.1182
G01 X15.2215 Y11.0450
G01 X15.2166 Y11.0299
G01 X15.1943 Y10.9409
G01 X15.1915 Y10.9251
G01 X15.1799 Y10.8458
G01 X15.1787 Y10.8299
G01 X15.1752 Y10.7566
G01 X15.1752 Y10.7360
G01 X15.1795 Y10.6536
G01 X15.1814 Y10.6378
G01 X15.1915 Y10.5699
G01 X15.1934 Y10.5585
G01 X15.1968 Y10.5429
G01 X15.2141 Y10.4741
G01 X15.2208 Y10.4521
G01 X15.2447 Y10.3853
G01 X15.2505 Y10.3704
G01 X15.2897 Y10.2875
G01 X15.2975 Y10.2736
G01 X15.3389 Y10.2049
G01 X15.3481 Y10.1918
G01 X15.3903 Y10.1349
G01 X15.4050 Y10.1170
G01 X15.4526 Y10.0645
G01 X15.4605 Y10.0561
G01 X15.4704 Y10.0466
G01 X15.5229 Y9.9989
G01 X15.5350 Y9.9886
G01 X15.6067 Y9.9353
G01 X15.6203 Y9.9265
G01 X15.6811 Y9.8900
G01 X15.6911 Y9.8843
G01 X15.7033 Y9.8780
G01 X15.7779 Y9.8430
G01 X15.7928 Y9.8372
G01 X15.8575 Y9.8140
G01 X15.8684 Y9.8104
G01 X15.8816 Y9.8066
G01 X15.9616 Y9.7868
G01 X15.9774 Y9.7840
G01 X16.0475 Y9.7736
G01 X16.0611 Y9.7720
G01 X16.0726 Y9.7712
G01 X16.1413 Y9.7678
G01 X16.1572 Y9.7675
G01 X16.2420 Y9.7715
G01 X16.2625 Y9.7736
G01 X16.3326 Y9.7840
G01 X16.3440 Y9.7859
G01 X16.3575 Y9.7888
G01 X16.4262 Y9.8060
G01 X16.4416 Y9.8104
G01 X16.5172 Y9.8372
G01 X16.5321 Y9.8430
G01 X16.6047 Y9.8770
G01 X16.6189 Y9.8843
G01 X16.6878 Y9.9253
G01 X16.7013 Y9.9339
G01 X16.7659 Y9.9815
G01 X16.7784 Y9.9914
G01 X16.8380 Y10.0451
G01 X16.8495 Y10.0561
G01 X16.9036 Y10.1154
G01 X16.9139 Y10.1275
G01 X16.9619 Y10.1918
G01 X16.9724 Y10.2069
G01 X17.0125 Y10.2736
G01 X17.0203 Y10.2875
G01 X17.0548 Y10.3599
G01 X17.0612 Y10.3745
G01 X17.0885 Y10.4500
G01 X17.0934 Y10.4651
G01 X17.1132 Y10.5429
G01 X17.1166 Y10.5585
G01 X17.1286 Y10.6378
G01 X17.1305 Y10.6536
G01 X17.1347 Y10.7338
G01 X17.1350 Y10.7497
G01 X17.1313 Y10.8299
G01 X17.1301 Y10.8458
G01 X17.1178 Y10.9298
G01 X17.1152 Y10.9433
G01 X17.1124 Y10.9552
G01 X18.7636 Y12.6064
G01 X19.0847 Y12.6064
G01 X19.0847 Y8.5434
G01 X19.0276 Y8.5291
G01 X19.0120 Y8.5246
G01 X18.9295 Y8.4952
G01 X18.9124 Y8.4885
G01 X18.8332 Y8.4512
G01 X18.8189 Y8.4439
G01 X18.7416 Y8.3978
G01 X18.7282 Y8.3892
G01 X18.6466 Y8.3287
G01 X18.6344 Y8.3184
G01 X18.5679 Y8.2577
G01 X18.5568 Y8.2462
G01 X18.4966 Y8.1793
G01 X18.4867 Y8.1668
G01 X18.4391 Y8.1026
G01 X17.0924 Y8.1026
G01 X17.0792 Y8.1088
G01 X17.0642 Y8.1148
G01 X17.0470 Y8.1205
G01 X17.0313 Y8.1246
G01 X17.0135 Y8.1281
G01 X16.9999 Y8.1301
G01 X16.9837 Y8.1314
G01 X16.9678 Y8.1319
G01 X15.5686 Y8.1319
G01 X15.5480 Y8.1310
G01 X15.5275 Y8.1285
G01 X15.5049 Y8.1240
G01 X15.4851 Y8.1184
G01 X15.4680 Y8.1123
G01 X15.4531 Y8.1059
G01 X15.4347 Y8.0966
G01 X15.4191 Y8.0873
G01 X15.4058 Y8.0781
G01 X15.3896 Y8.0654
G01 X15.3761 Y8.0532
G01 X15.3648 Y8.0416
G01 X15.3530 Y8.0278
G01 X15.3406 Y8.0113
G01 X15.3318 Y7.9977
G01 X15.3228 Y7.9819
G01 X15.3157 Y7.9674
G01 X15.3088 Y7.9506
G01 X15.3022 Y7.9311
G01 X15.2981 Y7.9154
G01 X15.2946 Y7.8976
G01 X15.2926 Y7.8840
G01 X15.2913 Y7.8678
G01 X15.2908 Y7.8541
G01 X15.2908 Y7.2909
G01 X15.2913 Y7.2772
G01 X15.2924 Y7.2635
G01 X15.2958 Y7.2406
G01 X15.2987 Y7.2272
G01 X15.3022 Y7.2139
G01 X15.3064 Y7.2009
G01 X15.3104 Y7.1903
G01 X15.3157 Y7.1776
G01 X15.3217 Y7.1652
G01 X15.3331 Y7.1452
G01 X15.3406 Y7.1337
G01 X15.3487 Y7.1226
G01 X15.3573 Y7.1119
G01 X15.3665 Y7.1016
G01 X15.3761 Y7.0918
G01 X15.3844 Y7.0842
G01 X15.3949 Y7.0753
G01 X15.4058 Y7.0669
G01 X15.4171 Y7.0591
G01 X15.4288 Y7.0518
G01 X15.4491 Y7.0409
G01 X15.4616 Y7.0353
G01 X15.4744 Y7.0302
G01 X15.4851 Y7.0266
G01 X15.4983 Y7.0227
G01 X15.5208 Y7.0176
G01 X15.5343 Y7.0155
G01 X15.5480 Y7.0140
G01 X15.5708 Y7.0131
G01 X16.9700 Y7.0131
G01 X16.9862 Y7.0137
G01 X17.0043 Y7.0155
G01 X17.0178 Y7.0176
G01 X17.0337 Y7.0210
G01 X17.0470 Y7.0245
G01 X17.0642 Y7.0302
G01 X17.0792 Y7.0362
G01 X17.0924 Y7.0424
G01 X18.3493 Y7.0424
G01 X18.3723 Y6.9937
G01 X18.3786 Y6.9814
G01 X18.4271 Y6.9001
G01 X18.4399 Y6.8812
G01 X18.4880 Y6.8164
G01 X18.4981 Y6.8038
G01 X18.5648 Y6.7304
G01 X18.5763 Y6.7193
G01 X18.6344 Y6.6666
G01 X18.6432 Y6.6591
G01 X18.6557 Y6.6492
G01 X18.7205 Y6.6011
G01 X18.7339 Y6.5920
G01 X18.8189 Y6.5411
G01 X18.8332 Y6.5338
G01 X18.9041 Y6.5003
G01 X18.9147 Y6.4956
G01 X18.9274 Y6.4905
G01 X19.0144 Y6.4597
G01 X19.0297 Y6.4553
G01 X19.1080 Y6.4357
G01 X19.1215 Y6.4328
G01 X19.1328 Y6.4309
G01 X19.2105 Y6.4194
G01 X19.2263 Y6.4175
G01 X19.3202 Y6.4127
G01 X19.3088 Y6.4049
G01 X19.2913 Y6.3919
G01 X19.2738 Y6.3773
G01 X19.2611 Y6.3658
G01 X19.2513 Y6.3562
G01 X19.2353 Y6.3386
G01 X19.2264 Y6.3282
G01 X19.2052 Y6.2996
G01 X19.1991 Y6.2902
G01 X19.1879 Y6.2715
G01 X19.1773 Y6.2513
G01 X19.1682 Y6.2317
G01 X19.1630 Y6.2190
G01 X19.1557 Y6.1985
G01 X19.1523 Y6.1877
G01 X19.1436 Y6.1532
G01 X19.1412 Y6.1397
G01 X19.1378 Y6.1162
G01 X19.1366 Y6.1025
G01 X19.1357 Y6.0854
G01 X19.1355 Y6.0626
G01 X19.1366 Y6.0408
G01 X19.1378 Y6.0271
G01 X19.1428 Y5.9944
G01 X19.1457 Y5.9810
G01 X19.1506 Y5.9616
G01 X18.4349 Y6.6774
G01 X18.4067 Y6.7033
G01 X18.3892 Y6.7179
G01 X18.3564 Y6.7420
G01 X18.3429 Y6.7506
G01 X18.3200 Y6.7644
G01 X18.3079 Y6.7711
G01 X18.2734 Y6.7876
G01 X18.2585 Y6.7940
G01 X18.2225 Y6.8070
G01 X18.2006 Y6.8135
G01 X18.1747 Y6.8200
G01 X18.1613 Y6.8229
G01 X18.1234 Y6.8287
G01 X18.1029 Y6.8308
G01 X18.0647 Y6.8326
G01 X17.0924 Y6.8326
G01 X17.0792 Y6.8388
G01 X17.0642 Y6.8448
G01 X17.0470 Y6.8505
G01 X17.0337 Y6.8540
G01 X17.0203 Y6.8569
G01 X17.0043 Y6.8595
G01 X16.9906 Y6.8610
G01 X16.9725 Y6.8619
G01 X15.5593 Y6.8617
G01 X15.5456 Y6.8608
G01 X15.5319 Y6.8592
G01 X15.5183 Y6.8569
G01 X15.5073 Y6.8546
G01 X15.4851 Y6.8484
G01 X15.4721 Y6.8439
G01 X15.4616 Y6.8397
G01 X15.4408 Y6.8299
G01 X15.4288 Y6.8232
G01 X15.4191 Y6.8173
G01 X15.4003 Y6.8040
G01 X15.3896 Y6.7954
G01 X15.3811 Y6.7879
G01 X15.3648 Y6.7716
G01 X15.3558 Y6.7612
G01 X15.3472 Y6.7505
G01 X15.3392 Y6.7393
G01 X15.3331 Y6.7298
G01 X15.3217 Y6.7098
G01 X15.3168 Y6.6996
G01 X15.3113 Y6.6870
G01 X15.3035 Y6.6653
G01 X15.2997 Y6.6521
G01 X15.2966 Y6.6387
G01 X15.2942 Y6.6252
G01 X15.2926 Y6.6140
G01 X15.2913 Y6.5978
G01 X15.2908 Y6.5819
G01 X15.2908 Y6.0231
G01 X15.2917 Y6.0003
G01 X15.2946 Y5.9774
G01 X15.2971 Y5.9639
G01 X15.3015 Y5.9463
G01 X15.3056 Y5.9332
G01 X15.3104 Y5.9203
G01 X15.3168 Y5.9054
G01 X15.3228 Y5.8931
G01 X15.3295 Y5.8811
G01 X15.3392 Y5.8657
G01 X15.3472 Y5.8545
G01 X15.3573 Y5.8419
G01 X15.3695 Y5.8284
G01 X15.3793 Y5.8188
G01 X15.3896 Y5.8096
G01 X15.4022 Y5.7995
G01 X15.4134 Y5.7915
G01 X15.4288 Y5.7818
G01 X15.4469 Y5.7720
G01 X15.4616 Y5.7653
G01 X15.4809 Y5.7579
G01 X15.4983 Y5.7527
G01 X15.5140 Y5.7489
G01 X15.5343 Y5.7455
G01 X15.5524 Y5.7437
G01 X15.5708 Y5.7431
G01 X16.9725 Y5.7431
G01 X16.9906 Y5.7440
G01 X17.0043 Y5.7455
G01 X17.0178 Y5.7476
G01 X17.0337 Y5.7510
G01 X17.0470 Y5.7545
G01 X17.0642 Y5.7602
G01 X17.0792 Y5.7662
G01 X17.0924 Y5.7724
G01 X17.3962 Y5.7724
G01 X17.3732 Y5.7585
G01 X17.3581 Y5.7480
G01 X17.3390 Y5.7336
G01 X17.3176 Y5.7148
G01 X17.3013 Y5.6988
G01 X17.2838 Y5.6793
G01 X17.2737 Y5.6667
G01 X17.2596 Y5.6475
G01 X17.2497 Y5.6320
G01 X17.2354 Y5.6074
G01 X17.2240 Y5.5838
G01 X17.2177 Y5.5690
G01 X17.2087 Y5.5443
G01 X17.2034 Y5.5269
G01 X17.1972 Y5.5015
G01 X17.1931 Y5.4781
G01 X17.1828 Y5.4912
G01 X17.1721 Y5.5034
G01 X17.1625 Y5.5132
G01 X17.1490 Y5.5254
G01 X17.1383 Y5.5340
G01 X17.1252 Y5.5435
G01 X17.1136 Y5.5509
G01 X17.0978 Y5.5599
G01 X17.0855 Y5.5659
G01 X17.0706 Y5.5723
G01 X17.0577 Y5.5771
G01 X17.0403 Y5.5823
G01 X17.0246 Y5.5861
G01 X17.0111 Y5.5885
G01 X16.9930 Y5.5908
G01 X16.9793 Y5.5917
G01 X15.5661 Y5.5919
G01 X15.5480 Y5.5910
G01 X15.5343 Y5.5895
G01 X15.5183 Y5.5869
G01 X15.5049 Y5.5840
G01 X15.4874 Y5.5792
G01 X15.4744 Y5.5748
G01 X15.4594 Y5.5688
G01 X15.4462 Y5.5626
G01 X15.2078 Y5.5626
G01 X14.9851 Y5.7853
G01 X14.9851 Y11.6092
G00 Z1.0000
G00 X12.1804 Y14.0787
G01 F60.00
G01 Z-0.1000
G01 F600.00
G01 X12.2738 Y14.0741
G01 X12.3045 Y14.0730
G01 X12.3495 Y14.0725
G01 X12.3938 Y14.0733
G01 X12.5065 Y14.0786
G01 X12.5476 Y14.0812
G01 X12.6015 Y14.0864
G01 X12.6565 Y14.0936
G01 X12.6603 Y13.5989
G01 X12.1804 Y14.0787
G01 X11.6337 Y14.3709
G01 X11.6601 Y14.3616
G01 X11.6861 Y14.3531
G01 X11.7143 Y14.3444
G01 X11.7414 Y14.3368
G01 X11.8579 Y14.3073
G01 X11.8852 Y14.3010
G01 X11.9100 Y14.2957
G01 X11.9366 Y14.2907
G01 X11.9666 Y14.2856
G01 X12.0837 Y14.2683
G01 X12.1103 Y14.2651
G01 X12.1396 Y14.2621
G01 X12.1671 Y14.2599
G01 X12.1938 Y14.2583
G01 X12.2967 Y14.2534
G01 X12.3262 Y14.2526
G01 X12.3555 Y14.2525
G01 X12.3825 Y14.2530
G01 X12.4090 Y14.2540
G01 X12.5005 Y14.2585
G01 X12.5358 Y14.2609
G01 X12.5720 Y14.2642
G01 X12.6065 Y14.2683
G01 X12.7252 Y14.2858
G01 X12.7550 Y14.2909
G01 X12.7834 Y14.2964
G01 X12.8142 Y14.3031
G01 X12.8425 Y14.3099
G01 X12.8436 Y13.1609
G01 X11.6337 Y14.3709
G01 X10.9580 Y14.7920
G01 X10.9784 Y14.8066
G01 X11.0476 Y14.8580
G01 X11.0750 Y14.8790
G01 X11.0995 Y14.8601
G01 X11.1725 Y14.8060
G01 X11.2117 Y14.7783
G01 X11.2330 Y14.7643
G01 X11.2552 Y14.7502
G01 X11.3422 Y14.6981
G01 X11.3826 Y14.6752
G01 X11.4245 Y14.6535
G01 X11.5239 Y14.6064
G01 X11.5471 Y14.5960
G01 X11.5702 Y14.5862
G01 X11.6141 Y14.5691
G01 X11.7182 Y14.5320
G01 X11.7619 Y14.5181
G01 X11.8067 Y14.5057
G01 X11.9050 Y14.4811
G01 X11.9320 Y14.4750
G01 X11.9576 Y14.4698
G01 X12.0038 Y14.4619
G01 X12.0923 Y14.4488
G01 X12.1237 Y14.4447
G01 X12.1591 Y14.4411
G01 X12.1958 Y14.4384
G01 X12.2967 Y14.4335
G01 X12.3427 Y14.4325
G01 X12.3910 Y14.4334
G01 X12.4909 Y14.4383
G01 X12.5271 Y14.4407
G01 X12.5638 Y14.4444
G01 X12.5979 Y14.4488
G01 X12.7006 Y14.4642
G01 X12.7376 Y14.4708
G01 X12.7757 Y14.4790
G01 X12.8817 Y14.5053
G01 X12.9180 Y14.5151
G01 X12.9427 Y14.5225
G01 X12.9654 Y14.5298
G01 X13.0223 Y14.5499
G01 X13.0240 Y12.7260
G01 X10.9580 Y14.7920
G01 X10.6688 Y14.8266
G01 X10.6897 Y14.8378
G01 X10.7106 Y14.8497
G01 X10.7974 Y14.9017
G01 X10.8289 Y14.9217
G01 X10.8602 Y14.9433
G01 X10.9434 Y15.0048
G01 X10.9750 Y15.0295
G01 X11.0079 Y15.0574
G01 X11.0750 Y15.1182
G01 X11.1445 Y15.0553
G01 X11.1631 Y15.0393
G01 X11.1819 Y15.0239
G01 X11.2069 Y15.0046
G01 X11.2796 Y14.9507
G01 X11.2997 Y14.9363
G01 X11.3193 Y14.9229
G01 X11.3396 Y14.9097
G01 X11.3576 Y14.8987
G01 X11.4359 Y14.8518
G01 X11.4639 Y14.8358
G01 X11.4856 Y14.8243
G01 X11.5068 Y14.8137
G01 X11.5947 Y14.7720
G01 X11.6342 Y14.7545
G01 X11.6549 Y14.7461
G01 X11.6765 Y14.7380
G01 X11.7770 Y14.7021
G01 X11.8048 Y14.6931
G01 X11.8339 Y14.6847
G01 X11.9403 Y14.6578
G01 X11.9808 Y14.6487
G01 X12.0243 Y14.6409
G01 X12.1242 Y14.6261
G01 X12.1683 Y14.6210
G01 X12.2114 Y14.6179
G01 X12.3158 Y14.6129
G01 X12.3480 Y14.6125
G01 X12.3784 Y14.6131
G01 X12.4855 Y14.6182
G01 X12.5096 Y14.6199
G01 X12.5310 Y14.6219
G01 X12.5734 Y14.6272
G01 X12.6614 Y14.6402
G01 X12.6905 Y14.6451
G01 X12.7157 Y14.6500
G01 X12.7404 Y14.6556
G01 X12.8422 Y14.6810
G01 X12.8799 Y14.6915
G01 X12.9208 Y14.7048
G01 X13.0164 Y14.7390
G01 X13.0381 Y14.7473
G01 X13.0581 Y14.7555
G01 X13.0963 Y14.7725
G01 X13.1761 Y14.8102
G01 X13.2020 Y14.8231
G01 X13.2045 Y12.2910
G01 X10.6688 Y14.8266
G01 X10.3544 Y14.8865
G01 X10.4176 Y14.9092
G01 X10.4517 Y14.9228
G01 X10.4789 Y14.9350
G01 X10.5709 Y14.9787
G01 X10.5985 Y14.9931
G01 X10.6244 Y15.0078
G01 X10.7056 Y15.0566
G01 X10.7229 Y15.0674
G01 X10.7397 Y15.0786
G01 X10.7637 Y15.0956
G01 X10.8422 Y15.1539
G01 X10.8674 Y15.1740
G01 X10.8908 Y15.1942
G01 X10.9614 Y15.2582
G01 X10.9874 Y15.2832
G01 X11.0099 Y15.3067
G01 X11.0750 Y15.3786
G01 X11.1418 Y15.3049
G01 X11.1558 Y15.2901
G01 X11.1704 Y15.2754
G01 X11.1910 Y15.2559
G01 X11.2573 Y15.1958
G01 X11.2752 Y15.1802
G01 X11.2924 Y15.1660
G01 X11.3149 Y15.1486
G01 X11.3863 Y15.0956
G01 X11.4038 Y15.0831
G01 X11.4209 Y15.0715
G01 X11.4465 Y15.0553
G01 X11.5249 Y15.0083
G01 X11.5459 Y14.9962
G01 X11.5651 Y14.9858
G01 X11.5910 Y14.9729
G01 X11.6711 Y14.9350
G01 X11.6910 Y14.9260
G01 X11.7095 Y14.9182
G01 X11.7383 Y14.9070
G01 X11.8230 Y14.8767
G01 X11.8447 Y14.8693
G01 X11.8639 Y14.8633
G01 X11.8937 Y14.8550
G01 X11.9807 Y14.8332
G01 X12.0022 Y14.8282
G01 X12.0219 Y14.8241
G01 X12.0531 Y14.8186
G01 X12.1422 Y14.8053
G01 X12.1641 Y14.8024
G01 X12.1841 Y14.8003
G01 X12.2157 Y14.7979
G01 X12.3050 Y14.7935
G01 X12.3276 Y14.7927
G01 X12.3472 Y14.7925
G01 X12.3852 Y14.7935
G01 X12.4743 Y14.7979
G01 X12.5065 Y14.8003
G01 X12.5259 Y14.8024
G01 X12.5484 Y14.8054
G01 X12.6369 Y14.8186
G01 X12.6681 Y14.8241
G01 X12.6878 Y14.8282
G01 X12.7090 Y14.8331
G01 X12.7942 Y14.8545
G01 X12.8234 Y14.8625
G01 X12.8448 Y14.8691
G01 X12.8659 Y14.8763
G01 X12.9517 Y14.9070
G01 X12.9805 Y14.9182
G01 X12.9990 Y14.9260
G01 X13.0189 Y14.9350
G01 X13.0993 Y14.9730
G01 X13.1259 Y14.9863
G01 X13.1460 Y14.9972
G01 X13.1651 Y15.0083
G01 X13.2416 Y15.0541
G01 X13.2668 Y15.0700
G01 X13.2835 Y15.0812
G01 X13.3006 Y15.0934
G01 X13.3849 Y15.1560
G01 X13.3849 Y11.8560
G01 X10.3544 Y14.8865
G01 X10.0001 Y14.9862
G01 X10.0707 Y14.9967
G01 X10.0989 Y15.0018
G01 X10.1242 Y15.0075
G01 X10.2115 Y15.0294
G01 X10.2343 Y15.0357
G01 X10.2577 Y15.0432
G01 X10.3544 Y15.0777
G01 X10.3772 Y15.0868
G01 X10.3979 Y15.0959
G01 X10.4808 Y15.1350
G01 X10.5015 Y15.1453
G01 X10.5328 Y15.1628
G01 X10.6077 Y15.2077
G01 X10.6252 Y15.2186
G01 X10.6412 Y15.2293
G01 X10.6580 Y15.2414
G01 X10.7290 Y15.2940
G01 X10.7519 Y15.3121
G01 X10.7724 Y15.3298
G01 X10.8371 Y15.3884
G01 X10.8521 Y15.4025
G01 X10.8657 Y15.4162
G01 X10.8799 Y15.4313
G01 X10.9403 Y15.4980
G01 X10.9547 Y15.5147
G01 X10.9679 Y15.5313
G01 X11.0258 Y15.6090
G01 X11.0369 Y15.6245
G01 X11.0542 Y15.6507
G01 X11.0750 Y15.6851
G01 X11.0958 Y15.6507
G01 X11.1131 Y15.6245
G01 X11.1739 Y15.5420
G01 X11.1868 Y15.5252
G01 X11.2093 Y15.4984
G01 X11.2698 Y15.4317
G01 X11.2850 Y15.4154
G01 X11.3011 Y15.3995
G01 X11.3836 Y15.3245
G01 X11.4040 Y15.3072
G01 X11.4245 Y15.2914
G01 X11.4955 Y15.2388
G01 X11.5200 Y15.2218
G01 X11.5423 Y15.2077
G01 X11.6269 Y15.1571
G01 X11.6475 Y15.1459
G01 X11.6687 Y15.1353
G01 X11.7501 Y15.0968
G01 X11.7768 Y15.0851
G01 X11.8020 Y15.0754
G01 X11.8884 Y15.0445
G01 X11.9104 Y15.0373
G01 X11.9340 Y15.0306
G01 X12.0258 Y15.0075
G01 X12.0522 Y15.0016
G01 X12.0809 Y14.9964
G01 X12.1678 Y14.9835
G01 X12.1924 Y14.9804
G01 X12.2179 Y14.9781
G01 X12.3238 Y14.9729
G01 X12.3483 Y14.9725
G01 X12.3720 Y14.9731
G01 X12.4641 Y14.9776
G01 X12.4932 Y14.9799
G01 X12.5200 Y14.9832
G01 X12.6107 Y14.9967
G01 X12.6335 Y15.0007
G01 X12.6599 Y15.0064
G01 X12.7494 Y15.0288
G01 X12.7754 Y15.0360
G01 X12.8032 Y15.0450
G01 X12.8874 Y15.0752
G01 X12.9101 Y15.0838
G01 X12.9347 Y15.0944
G01 X13.0198 Y15.1346
G01 X13.0384 Y15.1437
G01 X13.0563 Y15.1533
G01 X13.0742 Y15.1636
G01 X13.1505 Y15.2094
G01 X13.1755 Y15.2255
G01 X13.1967 Y15.2404
G01 X13.2703 Y15.2950
G01 X13.2885 Y15.3093
G01 X13.3073 Y15.3252
G01 X13.3849 Y15.3957
G01 X13.4025 Y15.4128
G01 X13.4199 Y15.4313
G01 X13.4777 Y15.4951
G01 X13.4954 Y15.5156
G01 X13.5131 Y15.5380
G01 X13.5649 Y15.6078
G01 X13.5649 Y11.4215
G01 X10.0001 Y14.9862
G01 X9.7913 Y15.3328
G01 X9.8028 Y15.3325
G01 X9.8165 Y15.3327
G01 X9.9136 Y15.3377
G01 X9.9294 Y15.3396
G01 X10.0233 Y15.3538
G01 X10.0389 Y15.3572
G01 X10.1309 Y15.3805
G01 X10.1461 Y15.3855
G01 X10.2354 Y15.4177
G01 X10.2500 Y15.4241
G01 X10.3357 Y15.4649
G01 X10.3496 Y15.4727
G01 X10.4212 Y15.5156
G01 X10.4346 Y15.5242
G01 X10.5110 Y15.5805
G01 X10.5236 Y15.5904
G01 X10.5957 Y15.6555
G01 X10.6120 Y15.6718
G01 X10.6695 Y15.7352
G01 X10.6799 Y15.7474
G01 X10.7380 Y15.8253
G01 X10.7458 Y15.8365
G01 X10.7519 Y15.8463
G01 X10.7959 Y15.9198
G01 X10.8026 Y15.9318
G01 X10.8078 Y15.9421
G01 X10.8481 Y16.0280
G01 X10.8539 Y16.0429
G01 X10.8820 Y16.1214
G01 X10.8857 Y16.1324
G01 X10.8895 Y16.1456
G01 X10.9128 Y16.2399
G01 X10.9156 Y16.2556
G01 X10.9293 Y16.3495
G01 X10.9306 Y16.3654
G01 X10.9350 Y16.4603
G01 X10.9347 Y16.4762
G01 X10.9300 Y16.5686
G01 X10.9279 Y16.5869
G01 X10.9137 Y16.6808
G01 X10.9103 Y16.6964
G01 X10.8870 Y16.7884
G01 X10.8820 Y16.8036
G01 X10.8498 Y16.8929
G01 X10.8434 Y16.9075
G01 X10.8078 Y16.9829
G01 X10.8026 Y16.9932
G01 X10.7959 Y17.0052
G01 X10.7458 Y17.0885
G01 X10.7366 Y17.1015
G01 X10.6870 Y17.1685
G01 X10.6799 Y17.1776
G01 X10.6710 Y17.1881
G01 X10.6135 Y17.2516
G01 X10.6056 Y17.2600
G01 X10.5941 Y17.2710
G01 X10.5323 Y17.3270
G01 X10.5201 Y17.3374
G01 X10.4440 Y17.3941
G01 X10.4310 Y17.4033
G01 X10.3496 Y17.4523
G01 X10.3357 Y17.4601
G01 X10.2500 Y17.5009
G01 X10.2354 Y17.5073
G01 X10.1351 Y17.5432
G01 X10.1198 Y17.5475
G01 X10.0276 Y17.5703
G01 X10.0119 Y17.5731
G01 X9.9180 Y17.5868
G01 X9.9021 Y17.5881
G01 X9.8072 Y17.5925
G01 X9.7913 Y17.5922
G01 X9.6964 Y17.5873
G01 X9.6806 Y17.5854
G01 X9.5867 Y17.5712
G01 X9.5711 Y17.5678
G01 X9.4791 Y17.5445
G01 X9.4639 Y17.5395
G01 X9.3746 Y17.5073
G01 X9.3600 Y17.5009
G01 X9.2743 Y17.4601
G01 X9.2604 Y17.4523
G01 X9.1790 Y17.4033
G01 X9.1660 Y17.3941
G01 X9.0899 Y17.3374
G01 X9.0777 Y17.3270
G01 X9.0075 Y17.2631
G01 X8.9965 Y17.2516
G01 X8.9329 Y17.1811
G01 X8.9230 Y17.1685
G01 X8.8667 Y17.0921
G01 X8.8581 Y17.0787
G01 X8.8095 Y16.9971
G01 X8.8022 Y16.9829
G01 X8.7619 Y16.8970
G01 X8.7561 Y16.8821
G01 X8.7243 Y16.7926
G01 X8.7200 Y16.7773
G01 X8.6972 Y16.6851
G01 X8.6944 Y16.6694
G01 X8.6807 Y16.5755
G01 X8.6794 Y16.5596
G01 X8.6750 Y16.4647
G01 X8.6753 Y16.4488
G01 X8.6802 Y16.3539
G01 X8.6821 Y16.3381
G01 X8.6963 Y16.2442
G01 X8.6997 Y16.2286
G01 X8.7230 Y16.1366
G01 X8.7280 Y16.1214
G01 X8.7602 Y16.0321
G01 X8.7666 Y16.0175
G01 X8.8074 Y15.9318
G01 X8.8152 Y15.9179
G01 X8.8642 Y15.8365
G01 X8.8734 Y15.8235
G01 X8.9301 Y15.7474
G01 X8.9405 Y15.7352
G01 X9.0044 Y15.6650
G01 X9.0159 Y15.6540
G01 X9.0864 Y15.5904
G01 X9.0990 Y15.5805
G01 X9.1754 Y15.5242
G01 X9.1888 Y15.5156
G01 X9.2704 Y15.4670
G01 X9.2846 Y15.4597
G01 X9.3705 Y15.4194
G01 X9.3854 Y15.4136
G01 X9.4749 Y15.3818
G01 X9.4902 Y15.3775
G01 X9.5824 Y15.3547
G01 X9.5981 Y15.3519
G01 X9.6920 Y15.3382
G01 X9.7079 Y15.3369
G01 X9.7913 Y15.3328
G01 X9.8001 Y15.5126
G01 X9.8099 Y15.5126
G01 X9.8981 Y15.5171
G01 X9.9903 Y15.5308
G01 X10.0808 Y15.5534
G01 X10.1685 Y15.5848
G01 X10.2528 Y15.6247
G01 X10.3328 Y15.6726
G01 X10.4077 Y15.7281
G01 X10.4732 Y15.7874
G01 X10.4801 Y15.7943
G01 X10.5394 Y15.8598
G01 X10.5921 Y15.9307
G01 X10.5975 Y15.9389
G01 X10.6428 Y16.0147
G01 X10.6807 Y16.0945
G01 X10.6845 Y16.1035
G01 X10.7134 Y16.1844
G01 X10.7357 Y16.2724
G01 X10.7376 Y16.2820
G01 X10.7504 Y16.3694
G01 X10.7550 Y16.4625
G01 X10.7508 Y16.5507
G01 X10.7498 Y16.5605
G01 X10.7367 Y16.6478
G01 X10.7141 Y16.7383
G01 X10.6845 Y16.8215
G01 X10.6807 Y16.8305
G01 X10.6428 Y16.9103
G01 X10.5949 Y16.9903
G01 X10.5424 Y17.0613
G01 X10.5362 Y17.0689
G01 X10.4768 Y17.1343
G01 X10.4096 Y17.1953
G01 X10.4038 Y17.1999
G01 X10.3328 Y17.2524
G01 X10.2571 Y17.2979
G01 X10.2484 Y17.3025
G01 X10.1685 Y17.3402
G01 X10.0854 Y17.3701
G01 X10.0760 Y17.3729
G01 X9.9903 Y17.3942
G01 X9.8981 Y17.4079
G01 X9.8099 Y17.4124
G01 X9.8001 Y17.4124
G01 X9.7119 Y17.4079
G01 X9.6245 Y17.3951
G01 X9.6149 Y17.3932
G01 X9.5340 Y17.3729
G01 X9.5246 Y17.3701
G01 X9.4415 Y17.3402
G01 X9.3616 Y17.3025
G01 X9.3529 Y17.2979
G01 X9.2772 Y17.2524
G01 X9.2062 Y17.1999
G01 X9.1986 Y17.1937
G01 X9.1368 Y17.1376
G01 X9.1299 Y17.1307
G01 X9.0706 Y17.0652
G01 X9.0151 Y16.9903
G01 X8.9672 Y16.9103
G01 X8.9293 Y16.8305
G01 X8.9255 Y16.8215
G01 X8.8974 Y16.7429
G01 X8.8946 Y16.7335
G01 X8.8733 Y16.6478
G01 X8.8602 Y16.5605
G01 X8.8592 Y16.5507
G01 X8.8550 Y16.4625
G01 X8.8596 Y16.3694
G01 X8.8724 Y16.2820
G01 X8.8743 Y16.2724
G01 X8.8959 Y16.1867
G01 X8.9255 Y16.1035
G01 X8.9293 Y16.0945
G01 X8.9672 Y16.0147
G01 X9.0151 Y15.9347
G01 X9.0706 Y15.8598
G01 X9.1299 Y15.7943
G01 X9.1368 Y15.7874
G01 X9.2023 Y15.7281
G01 X9.2732 Y15.6754
G01 X9.2814 Y15.6700
G01 X9.3572 Y15.6247
G01 X9.4415 Y15.5848
G01 X9.5246 Y15.5549
G01 X9.5340 Y15.5521
G01 X9.6197 Y15.5308
G01 X9.7070 Y15.5177
G01 X9.7168 Y15.5167
G01 X9.8001 Y15.5126
G00 Z1.0000
G00 X11.0750 Y16.1455
G01 F60.00
G01 Z-0.1000
G01 F600.00
G01 X11.0871 Y16.0973
G01 X11.0941 Y16.0736
G01 X11.1270 Y15.9812
G01 X11.1374 Y15.9549
G01 X11.1795 Y15.8651
G01 X11.1887 Y15.8469
G01 X11.2002 Y15.8263
G01 X11.2473 Y15.7479
G01 X11.2570 Y15.7329
G01 X11.2647 Y15.7218
G01 X11.3185 Y15.6492
G01 X11.3310 Y15.6332
G01 X11.3442 Y15.6176
G01 X11.4039 Y15.5517
G01 X11.4203 Y15.5346
G01 X11.4342 Y15.5214
G01 X11.5036 Y15.4586
G01 X11.5157 Y15.4485
G01 X11.5282 Y15.4386
G01 X11.5987 Y15.3863
G01 X11.6154 Y15.3745
G01 X11.6334 Y15.3629
G01 X11.7088 Y15.3177
G01 X11.7294 Y15.3062
G01 X11.7476 Y15.2970
G01 X11.8240 Y15.2609
G01 X11.8396 Y15.2539
G01 X11.8616 Y15.2452
G01 X11.9464 Y15.2149
G01 X11.9668 Y15.2083
G01 X11.9854 Y15.2032
G01 X12.0706 Y15.1818
G01 X12.0916 Y15.1773
G01 X12.1117 Y15.1738
G01 X12.2076 Y15.1598
G01 X12.2234 Y15.1582
G01 X12.2380 Y15.1572
G01 X12.3235 Y15.1530
G01 X12.3406 Y15.1525
G01 X12.3643 Y15.1529
G01 X12.4520 Y15.1572
G01 X12.4690 Y15.1584
G01 X12.4890 Y15.1606
G01 X12.5783 Y15.1738
G01 X12.5984 Y15.1773
G01 X12.6226 Y15.1826
G01 X12.7067 Y15.2037
G01 X12.7295 Y15.2102
G01 X12.7457 Y15.2156
G01 X12.8263 Y15.2445
G01 X12.8504 Y15.2539
G01 X12.8660 Y15.2609
G01 X12.9424 Y15.2970
G01 X12.9645 Y15.3082
G01 X12.9812 Y15.3177
G01 X13.0547 Y15.3618
G01 X13.0671 Y15.3695
G01 X13.0803 Y15.3784
G01 X13.1591 Y15.4366
G01 X13.1778 Y15.4513
G01 X13.1923 Y15.4639
G01 X13.2550 Y15.5206
G01 X13.2729 Y15.5378
G01 X13.2869 Y15.5525
G01 X13.3436 Y15.6152
G01 X13.3562 Y15.6297
G01 X13.3709 Y15.6484
G01 X13.4291 Y15.7272
G01 X13.4380 Y15.7404
G01 X13.4457 Y15.7528
G01 X13.4898 Y15.8263
G01 X13.4982 Y15.8411
G01 X13.5100 Y15.8641
G01 X13.5499 Y15.9488
G01 X13.5561 Y15.9632
G01 X13.5619 Y15.9781
G01 X13.5945 Y16.0694
G01 X13.6029 Y16.0973
G01 X13.6150 Y16.1455
G01 X13.6271 Y16.0973
G01 X13.6335 Y16.0757
G01 X13.6666 Y15.9822
G01 X13.6721 Y15.9676
G01 X13.6825 Y15.9435
G01 X13.7225 Y15.8589
G01 X13.7330 Y15.8389
G01 X13.7449 Y15.8185
G01 X13.7449 Y5.5657
G01 X13.7453 Y5.5464
G01 X13.7472 Y5.5095
G01 X13.7498 Y5.4827
G01 X13.7547 Y5.4494
G01 X13.7577 Y5.4315
G01 X13.7619 Y5.4118
G01 X13.7705 Y5.3770
G01 X13.7761 Y5.3575
G01 X13.7822 Y5.3392
G01 X13.7955 Y5.3024
G01 X13.8043 Y5.2816
G01 X13.8190 Y5.2501
G01 X13.8267 Y5.2349
G01 X13.8364 Y5.2172
G01 X13.8548 Y5.1865
G01 X13.8658 Y5.1693
G01 X13.8756 Y5.1554
G01 X13.8977 Y5.1258
G01 X13.9075 Y5.1135
G01 X13.9179 Y5.1014
G01 X13.9403 Y5.0767
G01 X13.9521 Y5.0643
G01 X14.4861 Y4.5304
G01 X14.5000 Y4.5170
G01 X14.5257 Y4.4937
G01 X14.5394 Y4.4822
G01 X14.5515 Y4.4727
G01 X14.4691 Y4.4727
G01 X13.6901 Y5.2516
G01 X13.6901 Y10.7519
G01 X13.6882 Y10.7979
G01 X13.6862 Y10.8215
G01 X13.6797 Y10.8682
G01 X13.6746 Y10.8949
G01 X13.6638 Y10.9385
G01 X13.6568 Y10.9623
G01 X13.6410 Y11.0067
G01 X13.6344 Y11.0233
G01 X13.6274 Y11.0389
G01 X13.6134 Y11.0683
G01 X13.6030 Y11.0883
G01 X13.5808 Y11.1258
G01 X13.5680 Y11.1457
G01 X13.5422 Y11.1811
G01 X13.5275 Y11.1997
G01 X13.5142 Y11.2151
G01 X13.4845 Y11.2473
G01 X9.5552 Y15.1766
G01 X9.5706 Y15.1740
G01 X9.6542 Y15.1616
G01 X9.6788 Y15.1586
G01 X9.6980 Y15.1572
G01 X9.7824 Y15.1531
G01 X9.8072 Y15.1525
G01 X9.8265 Y15.1530
G01 X9.9109 Y15.1571
G01 X9.9356 Y15.1590
G01 X9.9547 Y15.1614
G01 X10.0383 Y15.1738
G01 X10.0584 Y15.1773
G01 X10.0826 Y15.1826
G01 X10.1646 Y15.2032
G01 X10.1832 Y15.2083
G01 X10.2067 Y15.2160
G01 X10.2863 Y15.2445
G01 X10.3043 Y15.2514
G01 X10.3270 Y15.2614
G01 X10.4034 Y15.2975
G01 X10.4206 Y15.3062
G01 X10.4412 Y15.3177
G01 X10.5252 Y15.3683
G01 X10.5385 Y15.3771
G01 X10.5504 Y15.3856
G01 X10.6191 Y15.4366
G01 X10.6343 Y15.4485
G01 X10.6532 Y15.4646
G01 X10.7158 Y15.5214
G01 X10.7282 Y15.5331
G01 X10.7461 Y15.5517
G01 X10.8036 Y15.6152
G01 X10.8148 Y15.6280
G01 X10.8309 Y15.6484
G01 X10.8866 Y15.7236
G01 X10.8967 Y15.7384
G01 X10.9046 Y15.7509
G01 X10.9498 Y15.8263
G01 X10.9582 Y15.8411
G01 X10.9700 Y15.8641
G01 X11.0099 Y15.9488
G01 X11.0161 Y15.9632
G01 X11.0219 Y15.9781
G01 X11.0545 Y16.0694
G01 X11.0629 Y16.0973
G01 X11.0750 Y16.1455
G00 Z1.0000
G00 X12.3401 Y15.5126
G01 F60.00
G01 Z-0.1000
G01 F600.00
G01 X12.3499 Y15.5126
G01 X12.4381 Y15.5171
G01 X12.5255 Y15.5299
G01 X12.5351 Y15.5318
G01 X12.6208 Y15.5534
G01 X12.7040 Y15.5830
G01 X12.7130 Y15.5868
G01 X12.7928 Y15.6247
G01 X12.8728 Y15.6726
G01 X12.9438 Y15.7251
G01 X12.9514 Y15.7313
G01 X13.0132 Y15.7874
G01 X13.0201 Y15.7943
G01 X13.0794 Y15.8598
G01 X13.1321 Y15.9307
G01 X13.1375 Y15.9389
G01 X13.1828 Y16.0147
G01 X13.2227 Y16.0990
G01 X13.2541 Y16.1867
G01 X13.2757 Y16.2724
G01 X13.2776 Y16.2820
G01 X13.2904 Y16.3694
G01 X13.2949 Y16.4576
G01 X13.2949 Y16.4674
G01 X13.2908 Y16.5507
G01 X13.2898 Y16.5605
G01 X13.2767 Y16.6478
G01 X13.2554 Y16.7335
G01 X13.2526 Y16.7429
G01 X13.2245 Y16.8215
G01 X13.2207 Y16.8305
G01 X13.1828 Y16.9103
G01 X13.1375 Y16.9861
G01 X13.1321 Y16.9943
G01 X13.0794 Y17.0652
G01 X13.0168 Y17.1343
G01 X12.9514 Y17.1937
G01 X12.9438 Y17.1999
G01 X12.8728 Y17.2524
G01 X12.7971 Y17.2979
G01 X12.7884 Y17.3025
G01 X12.7085 Y17.3402
G01 X12.6208 Y17.3716
G01 X12.5351 Y17.3932
G01 X12.5255 Y17.3951
G01 X12.4381 Y17.4079
G01 X12.3499 Y17.4124
G01 X12.3401 Y17.4124
G01 X12.2519 Y17.4079
G01 X12.1597 Y17.3942
G01 X12.0740 Y17.3729
G01 X12.0646 Y17.3701
G01 X11.9815 Y17.3402
G01 X11.9016 Y17.3025
G01 X11.8929 Y17.2979
G01 X11.8172 Y17.2524
G01 X11.7423 Y17.1969
G01 X11.6768 Y17.1376
G01 X11.6699 Y17.1307
G01 X11.6106 Y17.0652
G01 X11.5551 Y16.9903
G01 X11.5096 Y16.9146
G01 X11.5050 Y16.9059
G01 X11.4673 Y16.8260
G01 X11.4359 Y16.7383
G01 X11.4133 Y16.6478
G01 X11.4002 Y16.5605
G01 X11.3992 Y16.5507
G01 X11.3950 Y16.4625
G01 X11.3996 Y16.3694
G01 X11.4124 Y16.2820
G01 X11.4143 Y16.2724
G01 X11.4359 Y16.1867
G01 X11.4655 Y16.1035
G01 X11.4693 Y16.0945
G01 X11.5072 Y16.0147
G01 X11.5551 Y15.9347
G01 X11.6106 Y15.8598
G01 X11.6699 Y15.7943
G01 X11.6768 Y15.7874
G01 X11.7386 Y15.7313
G01 X11.7462 Y15.7251
G01 X11.8172 Y15.6726
G01 X11.8972 Y15.6247
G01 X11.9815 Y15.5848
G01 X12.0646 Y15.5549
G01 X12.0740 Y15.5521
G01 X12.1549 Y15.5318
G01 X12.1645 Y15.5299
G01 X12.2519 Y15.5171
G01 X12.3401 Y15.5126
G01 X12.3313 Y15.3328
G01 X12.3428 Y15.3325
G01 X12.3565 Y15.3327
G01 X12.4536 Y15.3377
G01 X12.4694 Y15.3396
G01 X12.5633 Y15.3538
G01 X12.5789 Y15.3572
G01 X12.6709 Y15.3805
G01 X12.6861 Y15.3855
G01 X12.7754 Y15.4177
G01 X12.7900 Y15.4241
G01 X12.8757 Y15.4649
G01 X12.8896 Y15.4727
G01 X12.9710 Y15.5217
G01 X12.9840 Y15.5309
G01 X13.0601 Y15.5876
G01 X13.0723 Y15.5980
G01 X13.1425 Y15.6619
G01 X13.1535 Y15.6734
G01 X13.2171 Y15.7439
G01 X13.2270 Y15.7565
G01 X13.2833 Y15.8329
G01 X13.2919 Y15.8463
G01 X13.3405 Y15.9279
G01 X13.3478 Y15.9421
G01 X13.3881 Y16.0280
G01 X13.3939 Y16.0429
G01 X13.4257 Y16.1324
G01 X13.4300 Y16.1477
G01 X13.4528 Y16.2399
G01 X13.4556 Y16.2556
G01 X13.4693 Y16.3495
G01 X13.4706 Y16.3654
G01 X13.4750 Y16.4603
G01 X13.4747 Y16.4762
G01 X13.4698 Y16.5711
G01 X13.4679 Y16.5869
G01 X13.4537 Y16.6808
G01 X13.4503 Y16.6964
G01 X13.4270 Y16.7884
G01 X13.4220 Y16.8036
G01 X13.3898 Y16.8929
G01 X13.3834 Y16.9075
G01 X13.3426 Y16.9932
G01 X13.3348 Y17.0071
G01 X13.2858 Y17.0885
G01 X13.2766 Y17.1015
G01 X13.2199 Y17.1776
G01 X13.2095 Y17.1898
G01 X13.1456 Y17.2600
G01 X13.1341 Y17.2710
G01 X13.0636 Y17.3346
G01 X13.0510 Y17.3445
G01 X12.9746 Y17.4008
G01 X12.9612 Y17.4094
G01 X12.8796 Y17.4580
G01 X12.8654 Y17.4653
G01 X12.7795 Y17.5056
G01 X12.7646 Y17.5114
G01 X12.6751 Y17.5432
G01 X12.6598 Y17.5475
G01 X12.5676 Y17.5703
G01 X12.5519 Y17.5731
G01 X12.4580 Y17.5868
G01 X12.4421 Y17.5881
G01 X12.3472 Y17.5925
G01 X12.3313 Y17.5922
G01 X12.2364 Y17.5873
G01 X12.2206 Y17.5854
G01 X12.1267 Y17.5712
G01 X12.1111 Y17.5678
G01 X12.0191 Y17.5445
G01 X12.0039 Y17.5395
G01 X11.9146 Y17.5073
G01 X11.9000 Y17.5009
G01 X11.8143 Y17.4601
G01 X11.8004 Y17.4523
G01 X11.7190 Y17.4033
G01 X11.7060 Y17.3941
G01 X11.6299 Y17.3374
G01 X11.6177 Y17.3270
G01 X11.5475 Y17.2631
G01 X11.5365 Y17.2516
G01 X11.4729 Y17.1811
G01 X11.4630 Y17.1685
G01 X11.4067 Y17.0921
G01 X11.3981 Y17.0787
G01 X11.3495 Y16.9971
G01 X11.3422 Y16.9829
G01 X11.3019 Y16.8970
G01 X11.2961 Y16.8821
G01 X11.2643 Y16.7926
G01 X11.2600 Y16.7773
G01 X11.2372 Y16.6851
G01 X11.2344 Y16.6694
G01 X11.2207 Y16.5755
G01 X11.2194 Y16.5596
G01 X11.2150 Y16.4647
G01 X11.2153 Y16.4488
G01 X11.2202 Y16.3539
G01 X11.2221 Y16.3381
G01 X11.2363 Y16.2442
G01 X11.2397 Y16.2286
G01 X11.2630 Y16.1366
G01 X11.2680 Y16.1214
G01 X11.3002 Y16.0321
G01 X11.3066 Y16.0175
G01 X11.3474 Y15.9318
G01 X11.3552 Y15.9179
G01 X11.4042 Y15.8365
G01 X11.4134 Y15.8235
G01 X11.4701 Y15.7474
G01 X11.4805 Y15.7352
G01 X11.5444 Y15.6650
G01 X11.5559 Y15.6540
G01 X11.6264 Y15.5904
G01 X11.6390 Y15.5805
G01 X11.7154 Y15.5242
G01 X11.7288 Y15.5156
G01 X11.8104 Y15.4670
G01 X11.8246 Y15.4597
G01 X11.9105 Y15.4194
G01 X11.9254 Y15.4136
G01 X12.0149 Y15.3818
G01 X12.0302 Y15.3775
G01 X12.1224 Y15.3547
G01 X12.1381 Y15.3519
G01 X12.2320 Y15.3382
G01 X12.2479 Y15.3369
G01 X12.3313 Y15.3328
G00 Z1.0000
G00 X13.6150 Y16.7795
G01 F60.00
G01 Z-0.1000
G01 F600.00
G01 X13.6029 Y16.8277
G01 X13.5965 Y16.8493
G01 X13.5915 Y16.8642
G01 X13.5587 Y16.9554
G01 X13.5526 Y16.9701
G01 X13.5461 Y16.9845
G01 X13.5086 Y17.0638
G01 X13.4960 Y17.0880
G01 X13.4463 Y17.1712
G01 X13.4354 Y17.1885
G01 X13.4232 Y17.2061
G01 X13.3709 Y17.2766
G01 X13.3590 Y17.2918
G01 X13.3458 Y17.3074
G01 X13.2861 Y17.3733
G01 X13.2697 Y17.3904
G01 X13.2558 Y17.4036
G01 X13.1899 Y17.4633
G01 X13.1743 Y17.4765
G01 X13.1583 Y17.4890
G01 X13.0886 Y17.5407
G01 X13.0710 Y17.5529
G01 X13.0537 Y17.5638
G01 X12.9705 Y17.6135
G01 X12.9463 Y17.6261
G01 X12.8670 Y17.6636
G01 X12.8526 Y17.6701
G01 X12.8379 Y17.6762
G01 X12.7467 Y17.7090
G01 X12.7318 Y17.7140
G01 X12.7102 Y17.7204
G01 X12.6620 Y17.7325
G01 X12.7102 Y17.7446
G01 X12.7318 Y17.7510
G01 X12.7467 Y17.7560
G01 X12.8379 Y17.7888
G01 X12.8526 Y17.7949
G01 X12.8670 Y17.8014
G01 X12.9463 Y17.8389
G01 X12.9705 Y17.8515
G01 X13.0537 Y17.9012
G01 X13.0710 Y17.9121
G01 X13.0886 Y17.9243
G01 X13.1591 Y17.9766
G01 X13.1743 Y17.9885
G01 X13.1899 Y18.0017
G01 X13.2558 Y18.0614
G01 X13.2729 Y18.0778
G01 X13.2861 Y18.0917
G01 X13.3458 Y18.1576
G01 X13.3590 Y18.1732
G01 X13.3715 Y18.1892
G01 X13.4232 Y18.2589
G01 X13.4354 Y18.2765
G01 X13.4463 Y18.2938
G01 X13.4960 Y18.3770
G01 X13.5035 Y18.3911
G01 X13.5105 Y18.4051
G01 X13.5480 Y18.4845
G01 X13.5587 Y18.5096
G01 X13.5915 Y18.6008
G01 X13.5965 Y18.6157
G01 X13.6029 Y18.6373
G01 X13.6150 Y18.6855
G01 X13.6271 Y18.6373
G01 X13.6335 Y18.6157
G01 X13.6385 Y18.6008
G01 X13.6713 Y18.5096
G01 X13.6820 Y18.4845
G01 X13.7195 Y18.4051
G01 X13.7265 Y18.3911
G01 X13.7340 Y18.3770
G01 X13.7837 Y18.2938
G01 X13.7946 Y18.2765
G01 X13.8068 Y18.2589
G01 X13.8591 Y18.1884
G01 X13.8710 Y18.1732
G01 X13.8842 Y18.1576
G01 X13.9439 Y18.0917
G01 X13.9603 Y18.0746
G01 X13.9742 Y18.0614
G01 X14.0401 Y18.0017
G01 X14.0557 Y17.9885
G01 X14.0717 Y17.9760
G01 X14.1414 Y17.9243
G01 X14.1590 Y17.9121
G01 X14.1763 Y17.9012
G01 X14.2595 Y17.8515
G01 X14.2736 Y17.8440
G01 X14.2876 Y17.8370
G01 X14.3670 Y17.7995
G01 X14.3921 Y17.7888
G01 X14.4833 Y17.7560
G01 X14.4982 Y17.7510
G01 X14.5198 Y17.7446
G01 X14.5680 Y17.7325
G01 X14.5198 Y17.7204
G01 X14.4982 Y17.7140
G01 X14.4833 Y17.7090
G01 X14.3921 Y17.6762
G01 X14.3774 Y17.6701
G01 X14.3630 Y17.6636
G01 X14.2837 Y17.6261
G01 X14.2595 Y17.6135
G01 X14.1763 Y17.5638
G01 X14.1590 Y17.5529
G01 X14.1414 Y17.5407
G01 X14.0709 Y17.4884
G01 X14.0557 Y17.4765
G01 X14.0401 Y17.4633
G01 X13.9742 Y17.4036
G01 X13.9571 Y17.3872
G01 X13.9439 Y17.3733
G01 X13.8842 Y17.3074
G01 X13.8710 Y17.2918
G01 X13.8585 Y17.2758
G01 X13.8068 Y17.2061
G01 X13.7946 Y17.1885
G01 X13.7837 Y17.1712
G01 X13.7340 Y17.0880
G01 X13.7214 Y17.0638
G01 X13.6839 Y16.9845
G01 X13.6774 Y16.9701
G01 X13.6713 Y16.9554
G01 X13.6385 Y16.8642
G01 X13.6335 Y16.8493
G01 X13.6271 Y16.8277
G01 X13.6150 Y16.7795
G01 X13.4289 Y17.7325
G01 X13.5014 Y17.7982
G01 X13.5274 Y17.8232
G01 X13.5499 Y17.8467
G01 X13.6150 Y17.9186
G01 X13.6807 Y17.8461
G01 X13.7057 Y17.8201
G01 X13.7292 Y17.7976
G01 X13.8011 Y17.7325
G01 X13.7286 Y17.6668
G01 X13.7026 Y17.6418
G01 X13.6801 Y17.6183
G01 X13.6150 Y17.5464
G01 X13.5493 Y17.6189
G01 X13.5243 Y17.6449
G01 X13.5008 Y17.6674
G01 X13.4289 Y17.7325
G01 X13.1224 Y17.7325
G01 X13.1568 Y17.7533
G01 X13.1830 Y17.7706
G01 X13.1985 Y17.7817
G01 X13.2797 Y17.8423
G01 X13.2972 Y17.8565
G01 X13.3128 Y17.8701
G01 X13.3791 Y17.9302
G01 X13.4001 Y17.9505
G01 X13.4188 Y17.9700
G01 X13.4777 Y18.0351
G01 X13.4926 Y18.0522
G01 X13.5052 Y18.0678
G01 X13.5658 Y18.1490
G01 X13.5769 Y18.1645
G01 X13.5942 Y18.1907
G01 X13.6150 Y18.2251
G01 X13.6358 Y18.1907
G01 X13.6531 Y18.1645
G01 X13.6642 Y18.1490
G01 X13.7248 Y18.0678
G01 X13.7390 Y18.0503
G01 X13.7526 Y18.0347
G01 X13.8127 Y17.9684
G01 X13.8330 Y17.9474
G01 X13.8525 Y17.9287
G01 X13.9176 Y17.8698
G01 X13.9347 Y17.8549
G01 X13.9503 Y17.8423
G01 X14.0315 Y17.7817
G01 X14.0470 Y17.7706
G01 X14.0732 Y17.7533
G01 X14.1076 Y17.7325
G01 X14.0732 Y17.7117
G01 X14.0470 Y17.6944
G01 X14.0315 Y17.6833
G01 X13.9503 Y17.6227
G01 X13.9328 Y17.6085
G01 X13.9172 Y17.5949
G01 X13.8509 Y17.5348
G01 X13.8299 Y17.5145
G01 X13.8112 Y17.4950
G01 X13.7523 Y17.4299
G01 X13.7374 Y17.4128
G01 X13.7248 Y17.3972
G01 X13.6642 Y17.3160
G01 X13.6531 Y17.3005
G01 X13.6358 Y17.2743
G01 X13.6150 Y17.2399
G01 X13.5942 Y17.2743
G01 X13.5769 Y17.3005
G01 X13.5658 Y17.3160
G01 X13.5052 Y17.3972
G01 X13.4989 Y17.4052
G01 X13.4947 Y17.4103
G01 X13.4926 Y17.4128
G01 X13.4910 Y17.4147
G01 X13.4774 Y17.4303
G01 X13.4173 Y17.4966
G01 X13.3970 Y17.5176
G01 X13.3775 Y17.5363
G01 X13.3124 Y17.5952
G01 X13.2953 Y17.6101
G01 X13.2797 Y17.6227
G01 X13.1985 Y17.6833
G01 X13.1830 Y17.6944
G01 X13.1568 Y17.7117
G01 X13.1224 Y17.7325
G00 Z1.0000
G00 X15.2020 Y17.7325
G01 F60.00
G01 Z-0.1000
G01 F600.00
G01 X15.2502 Y17.7446
G01 X15.2718 Y17.7510
G01 X15.2867 Y17.7560
G01 X15.3779 Y17.7888
G01 X15.3926 Y17.7949
G01 X15.4070 Y17.8014
G01 X15.4863 Y17.8389
G01 X15.5105 Y17.8515
G01 X15.5937 Y17.9012
G01 X15.6110 Y17.9121
G01 X15.6286 Y17.9243
G01 X15.6991 Y17.9766
G01 X15.7143 Y17.9885
G01 X15.7299 Y18.0017
G01 X15.7958 Y18.0614
G01 X15.8129 Y18.0778
G01 X15.8261 Y18.0917
G01 X15.8858 Y18.1576
G01 X15.8990 Y18.1732
G01 X15.9115 Y18.1892
G01 X15.9632 Y18.2589
G01 X15.9754 Y18.2765
G01 X15.9863 Y18.2938
G01 X16.0360 Y18.3770
G01 X16.0486 Y18.4012
G01 X16.0861 Y18.4805
G01 X16.0926 Y18.4949
G01 X16.0987 Y18.5096
G01 X16.1315 Y18.6008
G01 X16.1365 Y18.6157
G01 X16.1429 Y18.6373
G01 X16.1550 Y18.6855
G01 X16.1671 Y18.6373
G01 X16.1755 Y18.6094
G01 X16.2081 Y18.5181
G01 X16.2139 Y18.5032
G01 X16.2201 Y18.4888
G01 X16.2600 Y18.4041
G01 X16.2718 Y18.3811
G01 X16.2802 Y18.3663
G01 X16.3254 Y18.2909
G01 X16.3333 Y18.2784
G01 X16.3434 Y18.2636
G01 X16.3991 Y18.1884
G01 X16.4152 Y18.1680
G01 X16.4264 Y18.1552
G01 X16.4839 Y18.0917
G01 X16.5018 Y18.0731
G01 X16.5142 Y18.0614
G01 X16.5777 Y18.0039
G01 X16.5974 Y17.9871
G01 X16.6109 Y17.9766
G01 X16.6814 Y17.9243
G01 X16.6954 Y17.9145
G01 X16.7105 Y17.9047
G01 X16.7108 Y17.5605
G01 X16.6954 Y17.5505
G01 X16.6814 Y17.5407
G01 X16.6109 Y17.4884
G01 X16.5974 Y17.4779
G01 X16.5777 Y17.4611
G01 X16.5142 Y17.4036
G01 X16.5018 Y17.3919
G01 X16.4839 Y17.3733
G01 X16.4264 Y17.3098
G01 X16.4152 Y17.2970
G01 X16.3991 Y17.2766
G01 X16.3434 Y17.2014
G01 X16.3333 Y17.1866
G01 X16.3254 Y17.1741
G01 X16.2802 Y17.0987
G01 X16.2718 Y17.0839
G01 X16.2600 Y17.0609
G01 X16.2201 Y16.9762
G01 X16.2139 Y16.9618
G01 X16.2081 Y16.9469
G01 X16.1755 Y16.8556
G01 X16.1671 Y16.8277
G01 X16.1550 Y16.7795
G01 X16.1429 Y16.8277
G01 X16.1365 Y16.8493
G01 X16.1315 Y16.8642
G01 X16.0987 Y16.9554
G01 X16.0926 Y16.9701
G01 X16.0861 Y16.9845
G01 X16.0486 Y17.0638
G01 X16.0360 Y17.0880
G01 X15.9863 Y17.1712
G01 X15.9754 Y17.1885
G01 X15.9632 Y17.2061
G01 X15.9109 Y17.2766
G01 X15.8990 Y17.2918
G01 X15.8858 Y17.3074
G01 X15.8261 Y17.3733
G01 X15.8097 Y17.3904
G01 X15.7958 Y17.4036
G01 X15.7299 Y17.4633
G01 X15.7143 Y17.4765
G01 X15.6983 Y17.4890
G01 X15.6286 Y17.5407
G01 X15.6110 Y17.5529
G01 X15.5937 Y17.5638
G01 X15.5105 Y17.6135
G01 X15.4863 Y17.6261
G01 X15.4070 Y17.6636
G01 X15.3926 Y17.6701
G01 X15.3779 Y17.6762
G01 X15.2867 Y17.7090
G01 X15.2718 Y17.7140
G01 X15.2502 Y17.7204
G01 X15.2020 Y17.7325
G01 X15.6624 Y17.7325
G01 X15.6968 Y17.7533
G01 X15.7230 Y17.7706
G01 X15.7385 Y17.7817
G01 X15.8197 Y17.8423
G01 X15.8372 Y17.8565
G01 X15.8528 Y17.8701
G01 X15.9191 Y17.9302
G01 X15.9401 Y17.9505
G01 X15.9588 Y17.9700
G01 X16.0177 Y18.0351
G01 X16.0326 Y18.0522
G01 X16.0452 Y18.0678
G01 X16.1058 Y18.1490
G01 X16.1169 Y18.1645
G01 X16.1342 Y18.1907
G01 X16.1550 Y18.2251
G01 X16.1758 Y18.1907
G01 X16.1918 Y18.1663
G01 X16.2039 Y18.1495
G01 X16.2600 Y18.0739
G01 X16.2718 Y18.0590
G01 X16.2870 Y18.0411
G01 X16.3501 Y17.9713
G01 X16.3675 Y17.9528
G01 X16.3851 Y17.9357
G01 X16.4627 Y17.8652
G01 X16.4755 Y17.8542
G01 X16.4903 Y17.8423
G01 X16.5305 Y17.8121
G01 X16.5307 Y17.6530
G01 X16.4903 Y17.6227
G01 X16.4755 Y17.6108
G01 X16.4627 Y17.5998
G01 X16.3851 Y17.5293
G01 X16.3675 Y17.5122
G01 X16.3501 Y17.4937
G01 X16.2870 Y17.4239
G01 X16.2746 Y17.4094
G01 X16.2600 Y17.3911
G01 X16.2039 Y17.3155
G01 X16.1918 Y17.2987
G01 X16.1758 Y17.2743
G01 X16.1550 Y17.2399
G01 X16.1342 Y17.2743
G01 X16.1169 Y17.3005
G01 X16.1058 Y17.3160
G01 X16.0452 Y17.3972
G01 X16.0310 Y17.4147
G01 X16.0174 Y17.4303
G01 X15.9573 Y17.4966
G01 X15.9370 Y17.5176
G01 X15.9175 Y17.5363
G01 X15.8524 Y17.5952
G01 X15.8353 Y17.6101
G01 X15.8197 Y17.6227
G01 X15.7385 Y17.6833
G01 X15.7230 Y17.6944
G01 X15.6968 Y17.7117
G01 X15.6624 Y17.7325
G01 X15.9689 Y17.7325
G01 X16.0414 Y17.7982
G01 X16.0674 Y17.8232
G01 X16.0899 Y17.8467
G01 X16.1550 Y17.9186
G01 X16.2207 Y17.8461
G01 X16.2457 Y17.8201
G01 X16.2692 Y17.7976
G01 X16.3411 Y17.7325
G01 X16.2686 Y17.6668
G01 X16.2426 Y17.6418
G01 X16.2201 Y17.6183
G01 X16.1550 Y17.5464
G01 X16.0893 Y17.6189
G01 X16.0643 Y17.6449
G01 X16.0408 Y17.6674
G01 X15.9689 Y17.7325
G00 Z1.0000
G00 X18.1392 Y17.9045
G01 F60.00
G01 Z-0.1000
G01 F600.00
G01 X18.1546 Y17.9145
G01 X18.1686 Y17.9243
G01 X18.2391 Y17.9766
G01 X18.2526 Y17.9871
G01 X18.2723 Y18.0039
G01 X18.3358 Y18.0614
G01 X18.3482 Y18.0731
G01 X18.3661 Y18.0917
G01 X18.4236 Y18.1552
G01 X18.4348 Y18.1680
G01 X18.4509 Y18.1884
G01 X18.5066 Y18.2636
G01 X18.5167 Y18.2784
G01 X18.5246 Y18.2909
G01 X18.5698 Y18.3663
G01 X18.5782 Y18.3811
G01 X18.5900 Y18.4041
G01 X18.6299 Y18.4888
G01 X18.6361 Y18.5032
G01 X18.6419 Y18.5181
G01 X18.6745 Y18.6094
G01 X18.6829 Y18.6373
G01 X18.6950 Y18.6855
G01 X18.7071 Y18.6373
G01 X18.7135 Y18.6157
G01 X18.7497 Y18.5137
G01 X18.7564 Y18.4971
G01 X18.7625 Y18.4835
G01 X18.8065 Y18.3911
G01 X18.8208 Y18.3653
G01 X18.8654 Y18.2909
G01 X18.8783 Y18.2710
G01 X18.8881 Y18.2571
G01 X18.9411 Y18.1857
G01 X18.9538 Y18.1697
G01 X18.9664 Y18.1552
G01 X19.0254 Y18.0901
G01 X19.0403 Y18.0746
G01 X19.0542 Y18.0614
G01 X19.1177 Y18.0039
G01 X19.1305 Y17.9927
G01 X19.1463 Y17.9801
G01 X19.1517 Y17.9760
G01 X19.2187 Y17.9263
G01 X19.2315 Y17.9171
G01 X19.2534 Y17.9029
G01 X19.3278 Y17.8583
G01 X19.3414 Y17.8505
G01 X19.3555 Y17.8430
G01 X19.4553 Y17.7958
G01 X19.4783 Y17.7865
G01 X19.5171 Y17.7725
G01 X19.1081 Y17.7724
G01 X19.0880 Y17.7717
G01 X19.0677 Y17.7701
G01 X19.0497 Y17.7678
G01 X19.0296 Y17.7645
G01 X19.0121 Y17.7608
G01 X18.9966 Y17.7570
G01 X18.9794 Y17.7520
G01 X18.9642 Y17.7471
G01 X18.9474 Y17.7409
G01 X18.9326 Y17.7348
G01 X18.9163 Y17.7274
G01 X18.9001 Y17.7192
G01 X18.8844 Y17.7105
G01 X18.8708 Y17.7023
G01 X18.8558 Y17.6925
G01 X18.8392 Y17.6806
G01 X18.8266 Y17.6709
G01 X18.8129 Y17.6594
G01 X18.8010 Y17.6487
G01 X18.7882 Y17.6362
G01 X18.7757 Y17.6230
G01 X18.7638 Y17.6096
G01 X18.7537 Y17.5972
G01 X18.7429 Y17.5830
G01 X18.7338 Y17.5699
G01 X18.7240 Y17.5549
G01 X18.7159 Y17.5411
G01 X18.7073 Y17.5254
G01 X18.7001 Y17.5112
G01 X18.6927 Y17.4949
G01 X18.6866 Y17.4801
G01 X18.6796 Y17.4610
G01 X18.6742 Y17.4439
G01 X18.6699 Y17.4285
G01 X18.6657 Y17.4111
G01 X18.6626 Y17.3955
G01 X18.6597 Y17.3778
G01 X18.6574 Y17.3598
G01 X18.6558 Y17.3395
G01 X18.6551 Y17.3194
G01 X18.6550 Y16.9104
G01 X18.6403 Y16.9513
G01 X18.6299 Y16.9762
G01 X18.5890 Y17.0629
G01 X18.5760 Y17.0880
G01 X18.5257 Y17.1722
G01 X18.5130 Y17.1921
G01 X18.5012 Y17.2088
G01 X18.4420 Y17.2882
G01 X18.4236 Y17.3098
G01 X18.3661 Y17.3733
G01 X18.3544 Y17.3857
G01 X18.3374 Y17.4021
G01 X18.2723 Y17.4611
G01 X18.2543 Y17.4765
G01 X18.2383 Y17.4890
G01 X18.1657 Y17.5428
G01 X18.1510 Y17.5529
G01 X18.1395 Y17.5603
G01 X18.1392 Y17.9045
G01 X18.3193 Y17.8120
G01 X18.3597 Y17.8423
G01 X18.3745 Y17.8542
G01 X18.3873 Y17.8652
G01 X18.4649 Y17.9357
G01 X18.4825 Y17.9528
G01 X18.4999 Y17.9713
G01 X18.5630 Y18.0411
G01 X18.5782 Y18.0590
G01 X18.5900 Y18.0739
G01 X18.6461 Y18.1495
G01 X18.6582 Y18.1663
G01 X18.6742 Y18.1907
G01 X18.6950 Y18.2251
G01 X18.7164 Y18.1897
G01 X18.7337 Y18.1636
G01 X18.7942 Y18.0816
G01 X18.8090 Y18.0624
G01 X18.8304 Y18.0372
G01 X18.8942 Y17.9668
G01 X18.9138 Y17.9466
G01 X18.9349 Y17.9266
G01 X18.9163 Y17.9209
G01 X18.8963 Y17.9140
G01 X18.8785 Y17.9072
G01 X18.8607 Y17.8998
G01 X18.8434 Y17.8920
G01 X18.8384 Y17.8896
G01 X18.8354 Y17.8882
G01 X18.8332 Y17.8871
G01 X18.8223 Y17.8817
G01 X18.8053 Y17.8726
G01 X18.7879 Y17.8626
G01 X18.7707 Y17.8520
G01 X18.7549 Y17.8415
G01 X18.7391 Y17.8305
G01 X18.7230 Y17.8184
G01 X18.7064 Y17.8051
G01 X18.6901 Y17.7911
G01 X18.6761 Y17.7783
G01 X18.6609 Y17.7635
G01 X18.6469 Y17.7490
G01 X18.6340 Y17.7347
G01 X18.6217 Y17.7202
G01 X18.6084 Y17.7036
G01 X18.5956 Y17.6864
G01 X18.5847 Y17.6708
G01 X18.5731 Y17.6530
G01 X18.5632 Y17.6368
G01 X18.5537 Y17.6200
G01 X18.5448 Y17.6032
G01 X18.5355 Y17.5841
G01 X18.5277 Y17.5668
G01 X18.5203 Y17.5490
G01 X18.5135 Y17.5312
G01 X18.5066 Y17.5112
G01 X18.5009 Y17.4926
G01 X18.4832 Y17.5114
G01 X18.4649 Y17.5293
G01 X18.3873 Y17.5998
G01 X18.3745 Y17.6108
G01 X18.3597 Y17.6227
G01 X18.3195 Y17.6529
G01 X18.3193 Y17.8120
G01 X19.9601 Y18.0526
G01 X19.9699 Y18.0526
G01 X20.0581 Y18.0571
G01 X20.1455 Y18.0699
G01 X20.1527 Y18.0713
G01 X20.2408 Y18.0934
G01 X20.3240 Y18.1230
G01 X20.3330 Y18.1268
G01 X20.4128 Y18.1647
G01 X20.4928 Y18.2126
G01 X20.5638 Y18.2651
G01 X20.5714 Y18.2713
G01 X20.6385 Y18.3325
G01 X20.6994 Y18.3998
G01 X20.7521 Y18.4707
G01 X20.7575 Y18.4789
G01 X20.8028 Y18.5547
G01 X20.8407 Y18.6345
G01 X20.8445 Y18.6435
G01 X20.8741 Y18.7267
G01 X20.8967 Y18.8172
G01 X20.9104 Y18.9094
G01 X20.9149 Y18.9976
G01 X20.9149 Y19.0074
G01 X20.9104 Y19.0956
G01 X20.8976 Y19.1830
G01 X20.8957 Y19.1926
G01 X20.8741 Y19.2783
G01 X20.8445 Y19.3615
G01 X20.8407 Y19.3705
G01 X20.8050 Y19.4459
G01 X20.8004 Y19.4546
G01 X20.7549 Y19.5303
G01 X20.7024 Y19.6013
G01 X20.6962 Y19.6089
G01 X20.6368 Y19.6743
G01 X20.5714 Y19.7337
G01 X20.5638 Y19.7399
G01 X20.4928 Y19.7924
G01 X20.4171 Y19.8379
G01 X20.4084 Y19.8425
G01 X20.3285 Y19.8802
G01 X20.2454 Y19.9101
G01 X20.2360 Y19.9129
G01 X20.1503 Y19.9342
G01 X20.0606 Y19.9477
G01 X20.0532 Y19.9483
G01 X19.9650 Y19.9525
G01 X19.8768 Y19.9483
G01 X19.8670 Y19.9473
G01 X19.7797 Y19.9342
G01 X19.6940 Y19.9129
G01 X19.6846 Y19.9101
G01 X19.6015 Y19.8802
G01 X19.5216 Y19.8425
G01 X19.5129 Y19.8379
G01 X19.4372 Y19.7924
G01 X19.3662 Y19.7399
G01 X19.3586 Y19.7337
G01 X19.2932 Y19.6743
G01 X19.2306 Y19.6052
G01 X19.1751 Y19.5303
G01 X19.1296 Y19.4546
G01 X19.1250 Y19.4459
G01 X19.0873 Y19.3660
G01 X19.0574 Y19.2829
G01 X19.0546 Y19.2735
G01 X19.0333 Y19.1878
G01 X19.0196 Y19.0956
G01 X19.0151 Y19.0074
G01 X19.0151 Y18.9976
G01 X19.0196 Y18.9094
G01 X19.0324 Y18.8220
G01 X19.0343 Y18.8124
G01 X19.0559 Y18.7267
G01 X19.0873 Y18.6390
G01 X19.1250 Y18.5591
G01 X19.1296 Y18.5504
G01 X19.1725 Y18.4789
G01 X19.1779 Y18.4707
G01 X19.2306 Y18.3998
G01 X19.2932 Y18.3307
G01 X19.3623 Y18.2681
G01 X19.4372 Y18.2126
G01 X19.5172 Y18.1647
G01 X19.5970 Y18.1268
G01 X19.6060 Y18.1230
G01 X19.6892 Y18.0934
G01 X19.7749 Y18.0718
G01 X19.7845 Y18.0699
G01 X19.8719 Y18.0571
G01 X19.9601 Y18.0526
G01 X20.4129 Y17.7725
G01 X20.4190 Y17.7747
G01 X20.4195 Y17.7725
G01 X20.4129 Y17.7725
G01 X20.7506 Y17.5925
G01 X19.1059 Y17.5923
G01 X19.0854 Y17.5909
G01 X19.0650 Y17.5880
G01 X19.0448 Y17.5836
G01 X19.0228 Y17.5769
G01 X19.0036 Y17.5694
G01 X18.9850 Y17.5605
G01 X18.9671 Y17.5502
G01 X18.9500 Y17.5387
G01 X18.9391 Y17.5303
G01 X18.9253 Y17.5185
G01 X18.9155 Y17.5089
G01 X18.9061 Y17.4989
G01 X18.8956 Y17.4865
G01 X18.8874 Y17.4755
G01 X18.8796 Y17.4642
G01 X18.8703 Y17.4486
G01 X18.8628 Y17.4342
G01 X18.8572 Y17.4217
G01 X18.8521 Y17.4089
G01 X18.8464 Y17.3917
G01 X18.8423 Y17.3760
G01 X18.8395 Y17.3625
G01 X18.8374 Y17.3490
G01 X18.8356 Y17.3309
G01 X18.8350 Y17.3125
G01 X18.8350 Y15.6816
G01 X18.8233 Y15.6975
G01 X18.8150 Y15.7081
G01 X18.7996 Y15.7255
G01 X18.7904 Y15.7353
G01 X18.7649 Y15.7589
G01 X18.7563 Y15.7660
G01 X18.7394 Y15.7789
G01 X18.7284 Y15.7866
G01 X18.7105 Y15.7979
G01 X18.7008 Y15.8036
G01 X18.6890 Y15.8100
G01 X18.6720 Y15.8183
G01 X18.6597 Y15.8238
G01 X18.6380 Y15.8322
G01 X18.6253 Y15.8366
G01 X18.5918 Y15.8458
G01 X18.5810 Y15.8481
G01 X18.5600 Y15.8517
G01 X18.5466 Y15.8535
G01 X18.5235 Y15.8553
G01 X18.5100 Y15.8559
G01 X18.4987 Y15.8559
G01 X18.4820 Y15.8555
G01 X18.4686 Y15.8547
G01 X18.4454 Y15.8521
G01 X18.4321 Y15.8502
G01 X18.3982 Y15.8428
G01 X18.3852 Y15.8391
G01 X18.3625 Y15.8317
G01 X18.3719 Y15.8463
G01 X18.4205 Y15.9279
G01 X18.4278 Y15.9421
G01 X18.4681 Y16.0280
G01 X18.4739 Y16.0429
G01 X18.5057 Y16.1324
G01 X18.5100 Y16.1477
G01 X18.5328 Y16.2399
G01 X18.5356 Y16.2556
G01 X18.5493 Y16.3495
G01 X18.5506 Y16.3654
G01 X18.5550 Y16.4603
G01 X18.5547 Y16.4762
G01 X18.5498 Y16.5711
G01 X18.5479 Y16.5869
G01 X18.5342 Y16.6784
G01 X18.5303 Y16.6964
G01 X18.5070 Y16.7884
G01 X18.5020 Y16.8036
G01 X18.4739 Y16.8821
G01 X18.4681 Y16.8970
G01 X18.4278 Y16.9829
G01 X18.4205 Y16.9971
G01 X18.3708 Y17.0806
G01 X18.3633 Y17.0921
G01 X18.3566 Y17.1015
G01 X18.2999 Y17.1776
G01 X18.2895 Y17.1898
G01 X18.2335 Y17.2516
G01 X18.2256 Y17.2600
G01 X18.2157 Y17.2695
G01 X18.1523 Y17.3270
G01 X18.1436 Y17.3346
G01 X18.1328 Y17.3431
G01 X18.0546 Y17.4008
G01 X18.0412 Y17.4094
G01 X17.9591 Y17.4583
G01 X17.9591 Y18.0067
G01 X17.9696 Y18.0127
G01 X18.0510 Y18.0617
G01 X18.0640 Y18.0709
G01 X18.1401 Y18.1276
G01 X18.1523 Y18.1380
G01 X18.2225 Y18.2019
G01 X18.2335 Y18.2134
G01 X18.2910 Y18.2769
G01 X18.3056 Y18.2947
G01 X18.3633 Y18.3729
G01 X18.3719 Y18.3863
G01 X18.4148 Y18.4579
G01 X18.4226 Y18.4718
G01 X18.4278 Y18.4821
G01 X18.4643 Y18.5595
G01 X18.4698 Y18.5721
G01 X18.4739 Y18.5829
G01 X18.5020 Y18.6614
G01 X18.5070 Y18.6766
G01 X18.5303 Y18.7686
G01 X18.5337 Y18.7842
G01 X18.5479 Y18.8781
G01 X18.5498 Y18.8939
G01 X18.5550 Y19.0003
G01 X18.5547 Y19.0162
G01 X18.5498 Y19.1111
G01 X18.5479 Y19.1269
G01 X18.5337 Y19.2208
G01 X18.5303 Y19.2364
G01 X18.5070 Y19.3284
G01 X18.5020 Y19.3436
G01 X18.4740 Y19.4218
G01 X18.4834 Y19.4162
G01 X18.5020 Y19.4059
G01 X18.5221 Y19.3962
G01 X18.5375 Y19.3895
G01 X18.5500 Y19.3847
G01 X18.5808 Y19.3748
G01 X18.5915 Y19.3720
G01 X18.6123 Y19.3674
G01 X18.6343 Y19.3638
G01 X18.6509 Y19.3618
G01 X18.6643 Y19.3607
G01 X18.6966 Y19.3600
G01 X18.7077 Y19.3603
G01 X18.7289 Y19.3618
G01 X18.7510 Y19.3646
G01 X18.7676 Y19.3674
G01 X18.7807 Y19.3702
G01 X18.8119 Y19.3787
G01 X18.8224 Y19.3821
G01 X18.8423 Y19.3896
G01 X18.8628 Y19.3986
G01 X18.8778 Y19.4060
G01 X18.8896 Y19.4123
G01 X18.9095 Y19.4244
G01 X18.9194 Y19.4308
G01 X18.8843 Y19.3326
G01 X18.8800 Y19.3173
G01 X18.8592 Y19.2342
G01 X18.8547 Y19.2116
G01 X18.8421 Y19.1269
G01 X18.8407 Y19.1155
G01 X18.8394 Y19.0996
G01 X18.8353 Y19.0162
G01 X18.8350 Y19.0003
G01 X18.8402 Y18.8939
G01 X18.8421 Y18.8781
G01 X18.8563 Y18.7842
G01 X18.8597 Y18.7686
G01 X18.8800 Y18.6877
G01 X18.8830 Y18.6766
G01 X18.8880 Y18.6614
G01 X18.9168 Y18.5808
G01 X18.9257 Y18.5595
G01 X18.9622 Y18.4821
G01 X18.9695 Y18.4679
G01 X19.0242 Y18.3765
G01 X19.0334 Y18.3635
G01 X19.0901 Y18.2874
G01 X19.1005 Y18.2752
G01 X19.1565 Y18.2134
G01 X19.1644 Y18.2050
G01 X19.1743 Y18.1955
G01 X19.2377 Y18.1380
G01 X19.2499 Y18.1276
G01 X19.3354 Y18.0642
G01 X19.3488 Y18.0556
G01 X19.4223 Y18.0116
G01 X19.4426 Y18.0007
G01 X19.4446 Y17.9997
G01 X19.5200 Y17.9641
G01 X19.5346 Y17.9577
G01 X19.5454 Y17.9536
G01 X19.6239 Y17.9255
G01 X19.6391 Y17.9205
G01 X19.7311 Y17.8972
G01 X19.7467 Y17.8938
G01 X19.8520 Y17.8782
G01 X19.8679 Y17.8769
G01 X19.9535 Y17.8727
G01 X19.9765 Y17.8727
G01 X20.0621 Y17.8769
G01 X20.0780 Y17.8782
G01 X20.0894 Y17.8796
G01 X20.1719 Y17.8919
G01 X20.1876 Y17.8947
G01 X20.1989 Y17.8972
G01 X20.2798 Y17.9175
G01 X20.2951 Y17.9218
G01 X20.3954 Y17.9577
G01 X20.4100 Y17.9641
G01 X20.4874 Y18.0007
G01 X20.5077 Y18.0116
G01 X20.5812 Y18.0556
G01 X20.5946 Y18.0642
G01 X20.6082 Y18.0740
G01 X20.6007 Y18.0531
G01 X20.5965 Y18.0401
G01 X20.5878 Y18.0056
G01 X20.5854 Y17.9921
G01 X20.5820 Y17.9685
G01 X20.5808 Y17.9549
G01 X20.5799 Y17.9378
G01 X20.5796 Y17.9262
G01 X20.5798 Y17.9125
G01 X20.5811 Y17.8888
G01 X20.5826 Y17.8751
G01 X20.5858 Y17.8535
G01 X20.5878 Y17.8424
G01 X20.5965 Y17.8080
G01 X20.6007 Y17.7949
G01 X20.6088 Y17.7726
G01 X20.6142 Y17.7599
G01 X20.6224 Y17.7424
G01 X20.6287 Y17.7302
G01 X20.6344 Y17.7202
G01 X20.6456 Y17.7018
G01 X20.6533 Y17.6904
G01 X20.6663 Y17.6729
G01 X20.6734 Y17.6641
G01 X20.6972 Y17.6377
G01 X20.7071 Y17.6282
G01 X20.7248 Y17.6123
G01 X20.7355 Y17.6037
G01 X20.7506 Y17.5925
G00 Z1.0000
G00 X20.8453 Y15.3066
G01 F60.00
G01 Z-0.1000
G01 F600.00
G01 X20.8453 Y15.3342
G01 X20.8641 Y15.3368
G01 X20.8566 Y15.3255
G01 X20.8453 Y15.3066
G00 Z1.0000
G00 X19.0659 Y15.3368
G01 F60.00
G01 Z-0.1000
G01 F600.00
G01 X19.0847 Y15.3342
G01 X19.0847 Y15.3066
G01 X19.0734 Y15.3255
G01 X19.0659 Y15.3368
G01 X19.0847 Y13.8219
G01 X19.0847 Y13.6666
G01 X18.9293 Y13.6666
G01 X18.9543 Y13.6818
G01 X18.9636 Y13.6882
G01 X18.9792 Y13.6997
G01 X18.9952 Y13.7127
G01 X19.0163 Y13.7321
G01 X19.0241 Y13.7402
G01 X19.0372 Y13.7545
G01 X19.0503 Y13.7704
G01 X19.0633 Y13.7879
G01 X19.0697 Y13.7972
G01 X19.0847 Y13.8219
G00 Z1.0000
G00 X15.0707 Y15.3487
G01 F60.00
G01 Z-0.1000
G01 F600.00
G01 X15.0587 Y15.3378
G01 X15.0489 Y15.3281
G01 X15.0328 Y15.3106
G01 X15.0239 Y15.3001
G01 X15.0028 Y15.2716
G01 X14.9953 Y15.2600
G01 X14.9851 Y15.2429
G01 X14.9851 Y15.3371
G01 X15.0048 Y15.3390
G01 X15.0707 Y15.3487
G01 X14.8051 Y15.5163
G01 X14.8850 Y15.5125
G01 X14.9732 Y15.5167
G01 X14.9830 Y15.5177
G01 X15.0655 Y15.5299
G01 X15.0751 Y15.5318
G01 X15.1608 Y15.5534
G01 X15.2485 Y15.5848
G01 X15.3328 Y15.6247
G01 X15.4086 Y15.6700
G01 X15.4168 Y15.6754
G01 X15.4877 Y15.7281
G01 X15.5532 Y15.7874
G01 X15.5601 Y15.7943
G01 X15.6162 Y15.8561
G01 X15.6224 Y15.8637
G01 X15.6749 Y15.9347
G01 X15.7228 Y16.0147
G01 X15.7627 Y16.0990
G01 X15.7926 Y16.1821
G01 X15.7954 Y16.1915
G01 X15.8157 Y16.2724
G01 X15.8176 Y16.2820
G01 X15.8304 Y16.3694
G01 X15.8349 Y16.4576
G01 X15.8349 Y16.4674
G01 X15.8304 Y16.5556
G01 X15.8172 Y16.6454
G01 X15.8157 Y16.6526
G01 X15.7941 Y16.7383
G01 X15.7627 Y16.8260
G01 X15.7228 Y16.9103
G01 X15.6749 Y16.9903
G01 X15.6194 Y17.0652
G01 X15.5568 Y17.1343
G01 X15.4877 Y17.1969
G01 X15.4128 Y17.2524
G01 X15.3328 Y17.3003
G01 X15.2485 Y17.3402
G01 X15.1608 Y17.3716
G01 X15.0703 Y17.3942
G01 X14.9781 Y17.4079
G01 X14.8850 Y17.4125
G01 X14.7919 Y17.4079
G01 X14.7021 Y17.3947
G01 X14.6949 Y17.3932
G01 X14.6092 Y17.3716
G01 X14.5260 Y17.3420
G01 X14.5170 Y17.3382
G01 X14.4416 Y17.3025
G01 X14.4329 Y17.2979
G01 X14.3572 Y17.2524
G01 X14.2823 Y17.1969
G01 X14.2132 Y17.1343
G01 X14.1538 Y17.0689
G01 X14.1476 Y17.0613
G01 X14.0979 Y16.9943
G01 X14.0925 Y16.9861
G01 X14.0472 Y16.9103
G01 X14.0073 Y16.8260
G01 X13.9759 Y16.7383
G01 X13.9543 Y16.6526
G01 X13.9524 Y16.6430
G01 X13.9402 Y16.5605
G01 X13.9392 Y16.5507
G01 X13.9350 Y16.4625
G01 X13.9396 Y16.3694
G01 X13.9533 Y16.2772
G01 X13.9746 Y16.1915
G01 X13.9774 Y16.1821
G01 X14.0073 Y16.0990
G01 X14.0450 Y16.0191
G01 X14.0496 Y16.0104
G01 X14.0925 Y15.9389
G01 X14.0965 Y15.9327
G01 X14.1049 Y15.9213
G01 X14.1049 Y5.5657
G01 X14.1066 Y5.5314
G01 X14.1112 Y5.4998
G01 X14.1186 Y5.4688
G01 X14.1215 Y5.4594
G01 X14.1315 Y5.4317
G01 X14.1462 Y5.4007
G01 X14.1613 Y5.3753
G01 X14.1667 Y5.3672
G01 X14.1843 Y5.3436
G01 X14.2057 Y5.3199
G01 X14.7442 Y4.7815
G01 X14.7642 Y4.7634
G01 X14.7700 Y4.7588
G01 X14.7937 Y4.7414
G01 X14.8189 Y4.7261
G01 X14.8275 Y4.7215
G01 X14.8542 Y4.7090
G01 X14.8866 Y4.6975
G01 X14.9151 Y4.6902
G01 X14.9247 Y4.6883
G01 X14.9539 Y4.6841
G01 X14.9857 Y4.6824
G01 X15.5001 Y4.6824
G01 X15.5074 Y4.6758
G01 X15.5152 Y4.6700
G01 X15.5237 Y4.6649
G01 X15.5325 Y4.6607
G01 X15.5418 Y4.6574
G01 X15.5489 Y4.6555
G01 X15.5586 Y4.6539
G01 X15.5683 Y4.6531
G01 X16.9678 Y4.6531
G01 X16.9776 Y4.6536
G01 X16.9849 Y4.6546
G01 X16.9945 Y4.6567
G01 X17.0015 Y4.6589
G01 X17.0083 Y4.6617
G01 X17.0171 Y4.6661
G01 X17.0254 Y4.6713
G01 X17.0312 Y4.6758
G01 X17.0385 Y4.6824
G01 X17.0435 Y4.6878
G01 X17.0481 Y4.6935
G01 X17.0536 Y4.7017
G01 X17.0571 Y4.7081
G01 X17.0611 Y4.7171
G01 X17.0635 Y4.7241
G01 X17.0659 Y4.7336
G01 X17.0670 Y4.7409
G01 X17.0678 Y4.7506
G01 X17.0678 Y5.3119
G01 X17.0673 Y5.3217
G01 X17.0654 Y5.3338
G01 X17.0620 Y5.3456
G01 X17.0592 Y5.3524
G01 X17.0560 Y5.3590
G01 X17.0496 Y5.3695
G01 X17.0451 Y5.3753
G01 X17.0402 Y5.3809
G01 X17.0312 Y5.3892
G01 X17.0213 Y5.3964
G01 X17.0106 Y5.4023
G01 X17.0015 Y5.4061
G01 X16.9897 Y5.4095
G01 X16.9800 Y5.4111
G01 X16.9678 Y5.4119
G01 X15.5708 Y5.4119
G01 X15.5610 Y5.4114
G01 X15.5513 Y5.4100
G01 X15.5418 Y5.4076
G01 X15.5325 Y5.4043
G01 X15.5237 Y5.4001
G01 X15.5152 Y5.3950
G01 X15.5074 Y5.3892
G01 X15.5001 Y5.3826
G01 X15.1332 Y5.3826
G01 X14.8051 Y5.7107
G01 X14.8051 Y15.5163
G00 Z1.0000
G00 X10.8889 Y17.7325
G01 F60.00
G01 Z-0.1000
G01 F600.00
G01 X10.9614 Y17.7982
G01 X10.9874 Y17.8232
G01 X11.0099 Y17.8467
G01 X11.0750 Y17.9186
G01 X11.1407 Y17.8461
G01 X11.1657 Y17.8201
G01 X11.1892 Y17.7976
G01 X11.2611 Y17.7325
G01 X11.1886 Y17.6668
G01 X11.1626 Y17.6418
G01 X11.1401 Y17.6183
G01 X11.0750 Y17.5464
G01 X11.0093 Y17.6189
G01 X10.9843 Y17.6449
G01 X10.9608 Y17.6674
G01 X10.8889 Y17.7325
G01 X10.5824 Y17.7325
G01 X10.6168 Y17.7533
G01 X10.6430 Y17.7706
G01 X10.6585 Y17.7817
G01 X10.7397 Y17.8423
G01 X10.7572 Y17.8565
G01 X10.7728 Y17.8701
G01 X10.8391 Y17.9302
G01 X10.8601 Y17.9505
G01 X10.8788 Y17.9700
G01 X10.9377 Y18.0351
G01 X10.9526 Y18.0522
G01 X10.9652 Y18.0678
G01 X11.0258 Y18.1490
G01 X11.0369 Y18.1645
G01 X11.0542 Y18.1907
G01 X11.0750 Y18.2251
G01 X11.0958 Y18.1907
G01 X11.1131 Y18.1645
G01 X11.1242 Y18.1490
G01 X11.1848 Y18.0678
G01 X11.1990 Y18.0503
G01 X11.2126 Y18.0347
G01 X11.2727 Y17.9684
G01 X11.2930 Y17.9474
G01 X11.3125 Y17.9287
G01 X11.3776 Y17.8698
G01 X11.3947 Y17.8549
G01 X11.4103 Y17.8423
G01 X11.4915 Y17.7817
G01 X11.5070 Y17.7706
G01 X11.5332 Y17.7533
G01 X11.5676 Y17.7325
G01 X11.5332 Y17.7117
G01 X11.5070 Y17.6944
G01 X11.4915 Y17.6833
G01 X11.4103 Y17.6227
G01 X11.3928 Y17.6085
G01 X11.3772 Y17.5949
G01 X11.3109 Y17.5348
G01 X11.2899 Y17.5145
G01 X11.2712 Y17.4950
G01 X11.2123 Y17.4299
G01 X11.1974 Y17.4128
G01 X11.1848 Y17.3972
G01 X11.1242 Y17.3160
G01 X11.1131 Y17.3005
G01 X11.0958 Y17.2743
G01 X11.0750 Y17.2399
G01 X11.0542 Y17.2743
G01 X11.0369 Y17.3005
G01 X11.0258 Y17.3160
G01 X10.9652 Y17.3972
G01 X10.9510 Y17.4147
G01 X10.9374 Y17.4303
G01 X10.8773 Y17.4966
G01 X10.8570 Y17.5176
G01 X10.8375 Y17.5363
G01 X10.7724 Y17.5952
G01 X10.7553 Y17.6101
G01 X10.7397 Y17.6227
G01 X10.6585 Y17.6833
G01 X10.6430 Y17.6944
G01 X10.6168 Y17.7117
G01 X10.5824 Y17.7325
G01 X10.1220 Y17.7325
G01 X10.1702 Y17.7446
G01 X10.1918 Y17.7510
G01 X10.2067 Y17.7560
G01 X10.2979 Y17.7888
G01 X10.3126 Y17.7949
G01 X10.3270 Y17.8014
G01 X10.4063 Y17.8389
G01 X10.4305 Y17.8515
G01 X10.5137 Y17.9012
G01 X10.5310 Y17.9121
G01 X10.5486 Y17.9243
G01 X10.6191 Y17.9766
G01 X10.6343 Y17.9885
G01 X10.6499 Y18.0017
G01 X10.7158 Y18.0614
G01 X10.7329 Y18.0778
G01 X10.7461 Y18.0917
G01 X10.8058 Y18.1576
G01 X10.8190 Y18.1732
G01 X10.8315 Y18.1892
G01 X10.8832 Y18.2589
G01 X10.8954 Y18.2765
G01 X10.9063 Y18.2938
G01 X10.9560 Y18.3770
G01 X10.9635 Y18.3911
G01 X10.9705 Y18.4051
G01 X11.0080 Y18.4845
G01 X11.0187 Y18.5096
G01 X11.0515 Y18.6008
G01 X11.0565 Y18.6157
G01 X11.0629 Y18.6373
G01 X11.0750 Y18.6855
G01 X11.0871 Y18.6373
G01 X11.0935 Y18.6157
G01 X11.0985 Y18.6008
G01 X11.1313 Y18.5096
G01 X11.1420 Y18.4845
G01 X11.1795 Y18.4051
G01 X11.1865 Y18.3911
G01 X11.1940 Y18.3770
G01 X11.2437 Y18.2938
G01 X11.2546 Y18.2765
G01 X11.2668 Y18.2589
G01 X11.3191 Y18.1884
G01 X11.3310 Y18.1732
G01 X11.3442 Y18.1576
G01 X11.4039 Y18.0917
G01 X11.4203 Y18.0746
G01 X11.4342 Y18.0614
G01 X11.5001 Y18.0017
G01 X11.5157 Y17.9885
G01 X11.5317 Y17.9760
G01 X11.6014 Y17.9243
G01 X11.6190 Y17.9121
G01 X11.6363 Y17.9012
G01 X11.7195 Y17.8515
G01 X11.7336 Y17.8440
G01 X11.7476 Y17.8370
G01 X11.8270 Y17.7995
G01 X11.8521 Y17.7888
G01 X11.9433 Y17.7560
G01 X11.9582 Y17.7510
G01 X11.9798 Y17.7446
G01 X12.0280 Y17.7325
G01 X11.9798 Y17.7204
G01 X11.9582 Y17.7140
G01 X11.9433 Y17.7090
G01 X11.8521 Y17.6762
G01 X11.8374 Y17.6701
G01 X11.8230 Y17.6636
G01 X11.7437 Y17.6261
G01 X11.7195 Y17.6135
G01 X11.6363 Y17.5638
G01 X11.6190 Y17.5529
G01 X11.6014 Y17.5407
G01 X11.5309 Y17.4884
G01 X11.5157 Y17.4765
G01 X11.5001 Y17.4633
G01 X11.4342 Y17.4036
G01 X11.4171 Y17.3872
G01 X11.4039 Y17.3733
G01 X11.3442 Y17.3074
G01 X11.3310 Y17.2918
G01 X11.3185 Y17.2758
G01 X11.2668 Y17.2061
G01 X11.2546 Y17.1885
G01 X11.2437 Y17.1712
G01 X11.1940 Y17.0880
G01 X11.1814 Y17.0638
G01 X11.1439 Y16.9845
G01 X11.1374 Y16.9701
G01 X11.1313 Y16.9554
G01 X11.0985 Y16.8642
G01 X11.0935 Y16.8493
G01 X11.0871 Y16.8277
G01 X11.0750 Y16.7795
G01 X11.0629 Y16.8277
G01 X11.0565 Y16.8493
G01 X11.0203 Y16.9513
G01 X11.0136 Y16.9679
G01 X11.0066 Y16.9835
G01 X10.9690 Y17.0629
G01 X10.9570 Y17.0861
G01 X10.9027 Y17.1771
G01 X10.8917 Y17.1940
G01 X10.8812 Y17.2088
G01 X10.8295 Y17.2784
G01 X10.8162 Y17.2953
G01 X10.8036 Y17.3098
G01 X10.7407 Y17.3791
G01 X10.7282 Y17.3919
G01 X10.7158 Y17.4036
G01 X10.6507 Y17.4626
G01 X10.6343 Y17.4765
G01 X10.6191 Y17.4884
G01 X10.5477 Y17.5413
G01 X10.5310 Y17.5529
G01 X10.5166 Y17.5621
G01 X10.4412 Y17.6073
G01 X10.4245 Y17.6168
G01 X10.4054 Y17.6265
G01 X10.3260 Y17.6641
G01 X10.3084 Y17.6719
G01 X10.2894 Y17.6794
G01 X10.2057 Y17.7094
G01 X10.1895 Y17.7148
G01 X10.1678 Y17.7210
G01 X10.1220 Y17.7325
G01 X8.3489 Y17.7325
G01 X8.4214 Y17.7982
G01 X8.4474 Y17.8232
G01 X8.4699 Y17.8467
G01 X8.5350 Y17.9186
G01 X8.6007 Y17.8461
G01 X8.6257 Y17.8201
G01 X8.6492 Y17.7976
G01 X8.7151 Y17.7379
G01 X8.7175 Y17.7356
G01 X8.7194 Y17.7340
G01 X8.7200 Y17.7334
G01 X8.7208 Y17.7327
G01 X8.7211 Y17.7325
G01 X8.7211 Y17.7325
G01 X8.6486 Y17.6668
G01 X8.6226 Y17.6418
G01 X8.6001 Y17.6183
G01 X8.5350 Y17.5464
G01 X8.4693 Y17.6189
G01 X8.4443 Y17.6449
G01 X8.4208 Y17.6674
G01 X8.3489 Y17.7325
G01 X8.0424 Y17.7325
G01 X8.0768 Y17.7533
G01 X8.1030 Y17.7706
G01 X8.1185 Y17.7817
G01 X8.1997 Y17.8423
G01 X8.2172 Y17.8565
G01 X8.2328 Y17.8701
G01 X8.2991 Y17.9302
G01 X8.3201 Y17.9505
G01 X8.3388 Y17.9700
G01 X8.3977 Y18.0351
G01 X8.4126 Y18.0522
G01 X8.4252 Y18.0678
G01 X8.4858 Y18.1490
G01 X8.4969 Y18.1645
G01 X8.5142 Y18.1907
G01 X8.5350 Y18.2251
G01 X8.5558 Y18.1907
G01 X8.5731 Y18.1645
G01 X8.5842 Y18.1490
G01 X8.6448 Y18.0678
G01 X8.6590 Y18.0503
G01 X8.6726 Y18.0347
G01 X8.7327 Y17.9684
G01 X8.7530 Y17.9474
G01 X8.7725 Y17.9287
G01 X8.8376 Y17.8698
G01 X8.8547 Y17.8549
G01 X8.8703 Y17.8423
G01 X8.9515 Y17.7817
G01 X8.9670 Y17.7706
G01 X8.9932 Y17.7533
G01 X9.0023 Y17.7477
G01 X9.0037 Y17.7468
G01 X9.0276 Y17.7325
G01 X8.9932 Y17.7117
G01 X8.9670 Y17.6944
G01 X8.9515 Y17.6833
G01 X8.8703 Y17.6227
G01 X8.8528 Y17.6085
G01 X8.8372 Y17.5949
G01 X8.7709 Y17.5348
G01 X8.7499 Y17.5145
G01 X8.7312 Y17.4950
G01 X8.6723 Y17.4299
G01 X8.6574 Y17.4128
G01 X8.6448 Y17.3972
G01 X8.5842 Y17.3160
G01 X8.5731 Y17.3005
G01 X8.5558 Y17.2743
G01 X8.5350 Y17.2399
G01 X8.5142 Y17.2743
G01 X8.4969 Y17.3005
G01 X8.4858 Y17.3160
G01 X8.4252 Y17.3972
G01 X8.4110 Y17.4147
G01 X8.3974 Y17.4303
G01 X8.3373 Y17.4966
G01 X8.3170 Y17.5176
G01 X8.2975 Y17.5363
G01 X8.2324 Y17.5952
G01 X8.2153 Y17.6101
G01 X8.1997 Y17.6227
G01 X8.1185 Y17.6833
G01 X8.1030 Y17.6944
G01 X8.0768 Y17.7117
G01 X8.0424 Y17.7325
G01 X8.5350 Y18.6855
G01 X8.5471 Y18.6373
G01 X8.5535 Y18.6157
G01 X8.5585 Y18.6008
