(G-CODE GENERATED BY FLATCAM v8.994 - www.flatcam.org - Version Date: 2020/11/7)

(Name: sram_module_for_IceBreaker-PTH.drl_cnc)
(Type: G-code from Geometry)
(Units: MM)

(Created on Monday, 18 October 2021 at 20:45)

(This preprocessor is the default preprocessor used by FlatCAM.)
(It is made to work with MACH3 compatible motion controllers.)


(TOOLS DIAMETER: )
(Tool: 1 -> Dia: 0.70104)
(Tool: 2 -> Dia: 0.8000999999999999)
(Tool: 3 -> Dia: 0.89916)
(Tool: 4 -> Dia: 1.0007599999999999)

(FEEDRATE Z: )
(Tool: 1 -> Feedrate: 200.0)
(Tool: 2 -> Feedrate: 200.0)
(Tool: 3 -> Feedrate: 200.0)
(Tool: 4 -> Feedrate: 200.0)

(FEEDRATE RAPIDS: )
(Tool: 1 -> Feedrate Rapids: 1500)
(Tool: 2 -> Feedrate Rapids: 1500)
(Tool: 3 -> Feedrate Rapids: 1500)
(Tool: 4 -> Feedrate Rapids: 1500)

(Z_CUT: )
(Tool: 1 -> Z_Cut: -1.8)
(Tool: 2 -> Z_Cut: -1.8)
(Tool: 3 -> Z_Cut: -1.8)
(Tool: 4 -> Z_Cut: -1.8)

(Tools Offset: )
(Tool: 4 -> Offset Z: 0.0)

(Z_MOVE: )
(Tool: 1 -> Z_Move: 1.0)
(Tool: 2 -> Z_Move: 1.0)
(Tool: 3 -> Z_Move: 1.0)
(Tool: 4 -> Z_Move: 1.0)

(Z Toolchange: 15 mm)
(X,Y Toolchange: 0.0000, 0.0000 mm)
(Z Start: None mm)
(Z End: 0.5 mm)
(X,Y End: None mm)
(Steps per circle: 64)
(Preprocessor Excellon: default)

(X range:    4.6357 ...   22.3192  mm)
(Y range:    2.0917 ...   19.5021  mm)

(Spindle Speed: 0 RPM)
G21
G90
G94

G01 F200.00

M5
G00 Z15.0000
T4
G00 X0.0000 Y0.0000                
M6
(MSG, Change to Tool Dia = 1.0008 ||| Total drills for tool T4 = 12)
M0
G00 Z15.0000

G01 F200.00
M03
G00 X19.9646 Y19.0017
G01 Z-1.8000
G01 Z0
G00 Z1.0000
G00 X17.4246 Y19.0017
G01 Z-1.8000
G01 Z0
G00 Z1.0000
G00 X14.8846 Y19.0017
G01 Z-1.8000
G01 Z0
G00 Z1.0000
G00 X12.3446 Y19.0017
G01 Z-1.8000
G01 Z0
G00 Z1.0000
G00 X9.8046 Y19.0017
G01 Z-1.8000
G01 Z0
G00 Z1.0000
G00 X7.2646 Y19.0017
G01 Z-1.8000
G01 Z0
G00 Z1.0000
G00 X7.2646 Y16.4617
G01 Z-1.8000
G01 Z0
G00 Z1.0000
G00 X9.8046 Y16.4617
G01 Z-1.8000
G01 Z0
G00 Z1.0000
G00 X12.3446 Y16.4617
G01 Z-1.8000
G01 Z0
G00 Z1.0000
G00 X14.8846 Y16.4617
G01 Z-1.8000
G01 Z0
G00 Z1.0000
G00 X17.4246 Y16.4617
G01 Z-1.8000
G01 Z0
G00 Z1.0000
G00 X19.9646 Y16.4617
G01 Z-1.8000
G01 Z0
G00 Z1.0000
M05
G00 Z0.50


